gm2256/arm_simulation/robot_dataset.csv
X,Y,Z,Roll,Pitch,Yaw,theta1,theta2,theta3,theta4,theta5,theta6
0.55,-0.25,0.10000000000000002,90.0,0.0,0.0,0.0,0.0,0.0,0.0,0.0,0.0
0.5529805391327901,-0.24333623515705327,0.10000000000000002,90.0,0.0,0.6923076923076752,0.012083048667652821,0.0,0.0,0.0,0.0,0.0
0.5919056599793393,0.12102764016712333,0.10000000000000002,90.0,0.0,36.0,0.6283185307179586,0.0,0.0,0.0,0.0,0.0
0.4077234759800095,0.4458268353685976,0.10000000000000002,90.0,-1.2722218725854067e-14,72.0,1.2566370614359172,0.0,0.0,0.0,0.0,0.0
0.3912983278139724,0.46031035036156753,0.10000000000000002,90.0,0.0,74.07692307692305,1.2928862074388758,0.0,0.0,0.0,0.0,0.0
0.2827520621380866,0.5339019304672531,0.10000000000000002,90.0,0.0,86.53846153846155,1.5103810834566316,0.0,0.0,0.0,0.0,0.0
0.25662726527075264,0.5469391618083812,0.10000000000000002,89.99999999999999,0.0,89.30769230769226,1.5587132781272428,0.0,0.0,0.0,0.0,0.0
0.22990310353446497,0.5586989913944906,0.10000000000000002,90.0,1.2722218725854067e-14,92.07692307692304,1.6070454727978551,0.0,0.0,0.0,0.0,0.0
0.1888299327037799,0.5738843581376704,0.10000000000000002,90.0,0.0,96.23076923076923,1.6795437648037739,0.0,0.0,0.0,0.0,0.0
0.14676470593913798,0.5860547082744053,0.10000000000000002,90.0,1.2722218725854067e-14,100.38461538461536,1.752042056809692,0.0,0.0,0.0,0.0,0.0
0.05327863409374545,0.6017984605738907,0.10000000000000002,90.0,0.0,109.38461538461536,1.9091216894891816,0.0,0.0,0.0,0.0,0.0
-0.07783515047799223,0.5991174253433698,0.10000000000000002,90.0,0.0,121.84615384615381,2.1266165655069362,0.0,0.0,0.0,0.0,0.0
-0.21895158709703222,0.5630809910729456,0.10000000000000002,90.0,0.0,135.6923076923077,2.368277538859998,0.0,0.0,0.0,0.0,0.0
-0.35329074890467194,0.4900873868386902,0.10000000000000002,90.0,0.0,150.23076923076923,2.622021560880712,0.0,0.0,0.0,0.0,0.0
-0.4256077117163441,0.4287867485447484,0.10000000000000002,90.0,1.2722218725854067e-14,159.23076923076923,2.7791011935602015,0.0,0.0,0.0,0.0,0.0
-0.45554878641036894,0.39683158039657085,0.10000000000000002,90.00000000000003,0.0,163.38461538461536,2.8515994855661195,0.0,0.0,0.0,0.0,0.0
-0.4786777569049856,0.36860223146965826,0.10000000000000002,90.00000000000001,0.0,166.84615384615384,2.9120147289043845,0.0,0.0,0.0,0.0,0.0
-0.4917218900382503,0.3510122260793931,0.10000000000000002,90.00000000000001,0.0,168.92307692307693,2.948263874907344,0.0,0.0,0.0,0.0,0.0
-0.5000600841756482,0.3390278929737842,0.10000000000000002,90.0,0.0,170.3076923076923,2.97242997224265,0.0,0.0,0.0,0.0,0.0
-0.49592718936745234,0.34504524753443444,0.10000000000000002,89.99999999999999,0.0,169.61538461538456,2.960346923574997,0.0,0.0,0.0,0.0,0.0
-0.4830965441641479,0.36279157792961175,0.10000000000000002,90.0,0.0,167.5384615384615,2.9240977775720376,0.0,0.0,0.0,0.0,0.0
-0.4603103503615674,0.39129832781397245,0.10000000000000002,90.0,0.0,164.076923076923,2.863682534233772,0.0,0.0,0.0,0.0,0.0
-0.45554878641036894,0.39683158039657085,0.10000000000000002,90.00000000000003,0.0,163.38461538461536,2.8515994855661195,0.0,0.0,0.0,0.0,0.0
-0.40978836821895726,0.4439296039604076,0.10000000000000002,90.0,0.0,157.1538461538461,2.742852047557242,0.0,0.0,0.0,0.0,0.0
-0.3591865646339333,0.4857828854400629,0.10000000000000002,90.00000000000001,0.0,150.92307692307693,2.634104609548365,0.0,0.0,0.0,0.0,0.0
-0.2916413549298728,0.5290985920361799,0.10000000000000002,90.00000000000001,0.0,143.3076923076923,2.5011910742041805,0.0,0.0,0.0,0.0,0.0
-0.184554137630619,0.575273648173996,0.10000000000000002,90.0,0.0,132.23076923076923,2.3078622955217325,0.0,0.0,0.0,0.0,0.0
-0.0342337382107702,0.6031816071202075,0.10000000000000002,89.99999999999999,0.0,117.6923076923077,2.0541182735010186,0.0,0.0,0.0,0.0,0.0
0.24333623515705327,0.5529805391327901,0.10000000000000002,89.99999999999999,0.0,90.69230769230768,1.5828793754625494,0.0,0.0,0.0,0.0,0.0
0.4439296039604077,0.4097883682189572,0.10000000000000002,90.0,-1.2722218725854067e-14,67.15384615384615,1.1720557207623454,0.0,0.0,0.0,0.0,0.0
0.545742147141356,0.2591630931161736,0.10000000000000002,90.00000000000001,0.0,49.84615384615382,0.8699795040710191,0.0,0.0,0.0,0.0,0.0
0.5991174253433698,0.07783515047799235,0.10000000000000002,90.0,0.0,31.846153846153804,0.5558202387120397,0.0,0.0,0.0,0.0,0.0
0.5909886425480511,-0.12542896148502472,0.10000000000000002,90.0,0.0,12.461538461538453,0.21749487601775477,0.0,0.0,0.0,0.0,0.0
0.5437984714350731,-0.26321706339992074,0.10000000000000002,90.0,0.0,-1.3846153846153504,-0.024166097335305642,0.0,0.0,0.0,0.0,0.0
0.45072071311589923,-0.4023068962474982,0.10000000000000002,90.0,0.0,-17.307692307692317,-0.3020762166913265,0.0,0.0,0.0,0.0,0.0
0.35329074890467205,-0.49008738683869024,0.10000000000000002,90.0,0.0,-29.769230769230795,-0.5195710927090813,0.0,0.0,0.0,0.0,0.0
0.225739173281059,-0.5603943483355128,0.10000000000000002,90.0,0.0,-43.615384615384606,-0.7612320660621421,0.0,0.0,0.0,0.0,0.0
0.11386695438816716,-0.5933247986544663,0.10000000000000002,90.0,1.2722218725854067e-14,-54.69230769230767,-0.9545608447445908,0.0,0.0,0.0,0.0,0.0
0.04879886912680402,-0.6021782712552364,0.10000000000000002,90.0,0.0,-60.92307692307692,-1.0633082827534681,0.0,0.0,0.0,0.0,0.0
0.019648615755656892,-0.6038327019124474,0.10000000000000002,90.0,0.0,-63.69230769230769,-1.1116404774240805,0.0,0.0,0.0,0.0,0.0
0.005052019062254741,-0.6041311754109323,0.10000000000000002,90.0,1.2722218725854067e-14,-65.07692307692308,-1.1358065747593866,0.0,0.0,0.0,0.0,0.0
-0.02414149931086787,-0.6036697673488571,0.10000000000000002,90.0,1.2722218725854067e-14,-67.84615384615385,-1.184138769429999,0.0,0.0,0.0,0.0,0.0
-0.11111183899835597,-0.593846915656218,0.10000000000000002,90.0,1.2722218725854067e-14,-76.15384615384615,-1.329135353441835,0.0,0.0,0.0,0.0,0.0
-0.11827903451000885,-0.5924610282502808,0.10000000000000002,89.99999999999999,1.2722218725854067e-14,-76.84615384615385,-1.3412184021094886,0.0,0.0,0.0,0.0,0.0
-0.14676470593913765,-0.5860547082744053,0.10000000000000002,90.0,0.0,-79.61538461538461,-1.3895505967801007,0.0,0.0,0.0,0.0,0.0
-0.1957502521764288,-0.5715608793233357,0.10000000000000002,89.99999999999999,0.0,-84.46153846153845,-1.474131937453672,0.0,0.0,0.0,0.0,0.0
-0.22313569796905264,-0.5614360696391564,0.10000000000000002,90.0,0.0,-87.23076923076923,-1.5224641321242842,0.0,0.0,0.0,0.0,0.0
-0.24999999999999972,-0.5500000000000002,0.10000000000000002,90.0,0.0,-89.99999999999997,-1.5707963267948961,0.0,0.0,0.0,0.0,0.0
-0.3329610409209111,-0.5041199710672681,0.10000000000000002,90.0,0.0,-98.99999999999994,-1.7278759594743858,0.0,0.0,0.0,0.0,0.0
-0.42878674854474813,-0.42560771171634443,0.10000000000000002,90.00000000000001,0.0,-110.76923076923073,-1.9332877868244878,0.0,0.0,0.0,0.0,0.0
-0.510524413547625,-0.3230554490669575,0.10000000000000002,90.0,0.0,-123.23076923076917,-2.1507826628422424,0.0,0.0,0.0,0.0,0.0
-0.5325837992287296,-0.2852270968878873,0.10000000000000002,90.0,0.0,-127.38461538461534,-2.223280954848161,0.0,0.0,0.0,0.0,0.0
-0.5359912500979611,-0.27877119617784196,0.10000000000000002,90.0,0.0,-128.07692307692307,-2.235364003515814,0.0,0.0,0.0,0.0,0.0
-0.5325837992287296,-0.2852270968878873,0.10000000000000002,90.0,0.0,-127.38461538461534,-2.223280954848161,0.0,0.0,0.0,0.0,0.0
-0.5065837459732067,-0.3292004075267124,0.10000000000000002,90.00000000000001,0.0,-122.5384615384615,-2.1386996141745898,0.0,0.0,0.0,0.0,0.0
-0.49008738683869,-0.3532907489046723,0.10000000000000002,90.00000000000001,0.0,-119.76923076923073,-2.0903674195039774,0.0,0.0,0.0,0.0,0.0
-0.4678620844035086,-0.38223692911282675,0.10000000000000002,90.00000000000001,0.0,-116.30769230769228,-2.0299521761657124,0.0,0.0,0.0,0.0,0.0
-0.4677909112734077,-0.3820929698887224,0.0867099401201275,90.0,1.384615384615363,-116.30769230769228,-2.0299521761657124,-0.024166097335305642,0.0,0.0,0.0,0.0
-0.4678442904715125,-0.3822009379931402,0.09335448494315059,90.0,0.6923076923076815,-116.30769230769228,-2.0299521761657124,-0.012083048667652821,0.0,0.0,0.0,0.0
-0.46273763200371715,-0.37187189120613223,0.21218369069685183,90.00000000000001,-11.769230769230765,-116.30769230769228,-2.0299521761657124,0.20541182735010194,0.0,0.0,0.0,0.0
-0.46211947132604053,-0.37062156075974023,0.2186813082222933,90.00000000000001,-12.461538461538458,-116.30769230769228,-2.0299521761657124,0.21749487601775477,0.0,0.0,0.0,0.0
-0.3625755555312484,-0.16927781120401822,0.5526411262415108,90.0,-55.384615384615344,-116.30769230769228,-2.0299521761657124,0.9666438934122435,0.0,0.0,0.0,0.0
-0.15440594538210983,0.2517790611957436,0.6270352060100415,-89.99999999999999,-73.38461538461542,63.69230769230768,-2.0299521761657124,1.8607894948185693,0.0,0.0,0.0,0.0
-0.12675948044748328,0.3076985301804037,0.6042357074241205,-90.0,-66.46153846153851,63.69230769230769,-2.0299521761657124,1.9816199814950994,0.0,0.0,0.0,0.0
-0.12406641725364559,0.3131456882202339,0.6015449152956496,-89.99999999999999,-65.76923076923077,63.69230769230768,-2.0299521761657124,1.9937030301627532,0.0,0.0,0.0,0.0
-0.12138795977490921,0.31856330382725995,0.5987808984678,-90.0,-65.07692307692308,63.69230769230769,-2.0299521761657124,2.0057860788304063,0.0,0.0,0.0,0.0
-0.12406641725364559,0.3131456882202339,0.6015449152956496,-89.99999999999999,-65.76923076923077,63.69230769230768,-2.0299521761657124,1.9937030301627532,0.0,0.0,0.0,0.0
-0.14598660133210156,0.2688085530164482,0.6209893224018179,-90.0,-71.30769230769232,63.69230769230769,-2.0299521761657124,1.8970386408215287,0.0,0.0,0.0,0.0
-0.14878218867952023,0.26315402321173204,0.6230810839623345,-89.99999999999999,-72.0,63.69230769230768,-2.0299521761657124,1.8849555921538759,0.0,0.0,0.0,0.0
-0.16863617204398093,0.22299611479211387,0.6355693925776333,-90.00000000000003,-76.84615384615385,63.69230769230772,-2.0299521761657124,1.8003742514803043,0.0,0.0,0.0,0.0
-0.17150818189914782,0.21718700804376814,0.6370425933560997,-90.00000000000001,-77.53846153846155,63.69230769230771,-2.0299521761657124,1.7882912028126514,0.0,0.0,0.0,0.0
-0.1657722607959846,0.2287888407911102,0.6340179995843287,-90.0,-76.15384615384619,63.69230769230769,-2.0299521761657124,1.812457300147957,0.0,0.0,0.0,0.0
-0.11344412112710806,0.3346310086833876,0.5900535883036023,-90.00000000000001,-63.000000000000014,63.69230769230771,-2.0299521761657124,2.0420352248333655,0.0,0.0,0.0,0.0
-0.06692299501232801,0.42872754779094874,0.5203736463002167,-90.0,-49.846153846153875,63.69230769230769,-2.0299521761657124,2.2716131495187732,0.0,0.0,0.0,0.0
-0.06027429730944477,0.44217561957386586,0.5072440675299279,-90.0,-47.769230769230774,63.69230769230769,-2.0299521761657124,2.3078622955217325,0.0,0.0,0.0,0.0
-0.062467038618737585,0.43774044386780997,0.5116809114941059,-89.99999999999999,-48.461538461538495,63.69230769230768,-2.0299521761657124,2.295779246854079,0.0,0.0,0.0,0.0
-0.10053255768130023,0.3607467443971072,0.5740833167840271,-90.0,-59.538461538461554,63.69230769230769,-2.0299521761657124,2.1024504681716305,0.0,0.0,0.0,0.0
-0.10308028266128222,0.3555935565180627,0.577417718449269,-89.99999999999997,-60.23076923076922,63.69230769230767,-2.0299521761657124,2.090367419503978,0.0,0.0,0.0,0.0
-0.2005809497438551,0.15838260959229963,0.6474323990947068,-89.99999999999996,-84.46153846153844,63.69230769230766,-2.0299521761657124,1.6674607161361212,0.0,0.0,0.0,0.0
-0.2388243161003744,0.08102918506228338,0.6489965548228247,89.99999999999997,-86.53846153846155,-116.30769230769224,-2.0299521761657124,1.5103810834566316,0.0,0.0,0.0,0.0
-0.24469931489041102,0.0691460450875629,0.6480338217125948,89.99999999999986,-85.15384615384615,-116.30769230769212,-2.0299521761657124,1.486214986121325,0.0,0.0,0.0,0.0
-0.2417631043953011,0.07508500806536071,0.6485552323303201,89.9999999999999,-85.84615384615381,-116.30769230769218,-2.0299521761657124,1.4982980347889776,0.0,0.0,0.0,0.0
-0.22999677650319336,0.09888431872521918,0.6498394077441061,90.00000000000003,-88.61538461538458,-116.30769230769234,-2.0299521761657124,1.54663022945959,0.0,0.0,0.0,0.0
-0.20938915254747745,0.1405665877373373,0.6489965548228247,-90.00000000000006,-86.53846153846155,63.69230769230776,-2.0299521761657124,1.6312115701331618,0.0,0.0,0.0,0.0
-0.206450364252551,0.1465107647342594,0.6485552323303202,-89.99999999999993,-85.84615384615385,63.692307692307615,-2.0299521761657124,1.6432946188008146,0.0,0.0,0.0,0.0
-0.2005809497438551,0.15838260959229963,0.6474323990947068,-89.99999999999996,-84.46153846153844,63.69230769230766,-2.0299521761657124,1.6674607161361212,0.0,0.0,0.0,0.0
-0.21821669214465877,0.12271145407440094,0.6498394077441061,-89.9999999999998,-88.61538461538464,63.69230769230749,-2.0299521761657124,1.5949624241302023,0.0,0.0,0.0,0.0
-0.3050110492574332,-0.0528442407346094,0.6188214972917586,90.0,-70.61538461538458,-116.30769230769228,-2.0299521761657124,1.2324709641006106,0.0,0.0,0.0,0.0
-0.3964677953156997,-0.23783037501023377,0.4889087296526011,90.00000000000001,-45.00000000000001,-116.30769230769228,-2.0299521761657124,0.7853981633974483,0.0,0.0,0.0,0.0
-0.4399413778371,-0.3257627618526729,0.35559774462407256,90.00000000000001,-27.69230769230767,-116.30769230769228,-2.0299521761657124,0.4833219467061218,0.0,0.0,0.0,0.0
-0.46273763200371715,-0.37187189120613223,0.21218369069685183,90.00000000000001,-11.769230769230765,-116.30769230769228,-2.0299521761657124,0.20541182735010194,0.0,0.0,0.0,0.0
-0.4678442904715125,-0.3822009379931402,0.09335448494315059,90.0,0.6923076923076815,-116.30769230769228,-2.0299521761657124,-0.012083048667652821,0.0,0.0,0.0,0.0
-0.4669906908093899,-0.3804743939324708,0.05353570985059794,90.0,4.846153846153885,-116.30769230769228,-2.0299521761657124,-0.08458134067357173,0.0,0.0,0.0,0.0
-0.466422178243386,-0.37932448486173737,0.04030672712044856,90.0,6.230769230769235,-116.30769230769228,-2.0299521761657124,-0.10874743800887739,0.0,0.0,0.0,0.0
-0.46571216028182955,-0.37788835812822225,0.027112603580674705,89.99999999999997,7.61538461538465,-116.30769230769234,-2.0299521761657124,-0.13291353534418401,0.0,0.0,0.0,0.0
-0.46530421312810427,-0.3770632187021124,0.020531022736928178,90.00000000000001,8.307692307692319,-116.30769230769228,-2.0299521761657124,-0.14499658401183685,0.0,0.0,0.0,0.0
-0.46571216028182955,-0.37788835812822225,0.027112603580674705,89.99999999999997,7.61538461538465,-116.30769230769234,-2.0299521761657124,-0.13291353534418401,0.0,0.0,0.0,0.0
-0.46486105155521584,-0.3761668523894961,0.18603895577212698,90.0,-8.999999999999975,-116.30769230769228,-2.0299521761657124,0.15707963267948966,0.0,0.0,0.0,0.0
-0.4638693490870735,-0.37416097295643186,0.1991402707976479,90.00000000000001,-10.38461538461535,-116.30769230769228,-2.0299521761657124,0.1812457300147953,0.0,0.0,0.0,0.0
-0.45202194588980527,-0.3501976743139123,0.29503268787339465,90.00000000000001,-20.769230769230763,-116.30769230769228,-2.0299521761657124,0.3624914600295916,0.0,0.0,0.0,0.0
-0.45304970338514455,-0.3522764808998637,0.28880478613488725,90.00000000000001,-20.076923076923094,-116.30769230769228,-2.0299521761657124,0.3504084113619388,0.0,0.0,0.0,0.0
-0.45593184839891937,-0.35810608765386204,0.2699593469062211,90.00000000000001,-17.999999999999986,-116.30769230769228,-2.0299521761657124,0.3141592653589793,0.0,0.0,0.0,0.0
-0.456825053367999,-0.35991273988529543,0.2636266796203618,90.0,-17.307692307692317,-116.30769230769228,-2.0299521761657124,0.3020762166913265,0.0,0.0,0.0,0.0
-0.46211947132604053,-0.37062156075974023,0.2186813082222933,90.00000000000001,-12.461538461538458,-116.30769230769228,-2.0299521761657124,0.21749487601775477,0.0,0.0,0.0,0.0
-0.46608483345680546,-0.3786421501988814,0.1662951741404275,90.00000000000001,-6.923076923076905,-116.30769230769228,-2.0299521761657124,0.12083048667653021,0.0,0.0,0.0,0.0
-0.4667241453898097,-0.3799352624970971,0.1530826565029834,90.0,-5.538461538461541,-116.30769230769228,-2.0299521761657124,0.09666438934122455,0.0,0.0,0.0,0.0
-0.4669906908093899,-0.3804743939324708,0.14646429014940207,90.00000000000001,-4.8461538461538725,-116.30769230769228,-2.0299521761657124,0.08458134067357173,0.0,0.0,0.0,0.0
-0.46741736598451217,-0.3813374138259073,0.13320817358225726,90.0,-3.4615384615384457,-116.30769230769228,-2.0299521761657124,0.060415243338265104,0.0,0.0,0.0,0.0
-0.46770195460246594,-0.38191304056273184,0.11993266437689593,90.00000000000001,-2.0769230769230953,-116.30769230769228,-2.0299521761657124,0.036249146002959455,0.0,0.0,0.0,0.0
-0.4677909112734077,-0.3820929698887224,0.11329005987987253,90.00000000000001,-1.384615384615363,-116.30769230769228,-2.0299521761657124,0.024166097335305642,0.0,0.0,0.0,0.0
-0.4678442904715125,-0.3822009379931402,0.10664551505684945,90.00000000000001,-0.6923076923076689,-116.30769230769228,-2.0299521761657124,0.012083048667652821,0.0,0.0,0.0,0.0
-0.4678620844035086,-0.38223692911282675,0.10000000000000002,90.00000000000001,0.0,-116.30769230769228,-2.0299521761657124,0.0,0.0,0.0,0.0,0.0
-0.43894582516802017,-0.4151223465046971,0.10000000000000002,90.0,0.0,-112.15384615384612,-1.957453884159794,0.0,0.0,0.0,0.0,0.0
-0.4439296039604075,-0.4097883682189573,0.10000000000000002,90.0,0.0,-112.84615384615384,-1.9695369328274472,0.0,0.0,0.0,0.0,0.0
-0.448848569790278,-0.4043945615326966,0.10000000000000002,90.0,0.0,-113.5384615384615,-1.9816199814950999,0.0,0.0,0.0,0.0,0.0
-0.4130805287827329,-0.4408678676662406,0.10000000000000002,90.0,-1.2722218725854067e-14,-108.69230769230766,-1.8970386408215287,0.0,0.0,0.0,0.0,0.0
-0.16790762259969091,-0.5803507820903834,0.10000000000000002,90.0,0.0,-81.6923076923077,-1.4257997427830598,0.0,0.0,0.0,0.0,0.0
-0.16088312937665744,-0.5823372035873835,0.10000000000000002,90.0,1.2722218725854067e-14,-81.0,-1.413716694115407,0.0,0.0,0.0,0.0,0.0
0.33529730329030316,-0.5025691180387534,0.10000000000000002,90.0,0.0,-31.84615384615386,-0.5558202387120407,0.0,0.0,0.0,0.0,0.0
0.5963583988886,-0.09672983032666513,0.10000000000000002,90.0,0.0,15.230769230769223,0.26582707068836703,0.0,0.0,0.0,0.0,0.0
0.5393204471618781,0.2722745953501939,0.10000000000000002,90.0,0.0,51.23076923076922,0.8941456014063257,0.0,0.0,0.0,0.0,0.0
0.4769617510373751,0.37082002109832335,0.10000000000000002,90.0,1.2722218725854067e-14,62.30769230769231,1.0874743800887747,0.0,0.0,0.0,0.0,0.0
0.4183772725351267,0.43584453400962636,0.10000000000000002,90.0,0.0,70.61538461538458,1.2324709641006106,0.0,0.0,0.0,0.0,0.0
0.37435906971467003,0.47418908351243894,0.10000000000000002,90.0,-1.2722218725854067e-14,76.15384615384615,1.329135353441835,0.0,0.0,0.0,0.0,0.0
0.33296104092091144,0.5041199710672679,0.10000000000000002,90.0,0.0,81.0,1.413716694115407,0.0,0.0,0.0,0.0,0.0
0.25662726527075264,0.5469391618083812,0.10000000000000002,89.99999999999999,0.0,89.30769230769226,1.5587132781272428,0.0,0.0,0.0,0.0,0.0
0.10392842134834736,0.5951461024286728,0.10000000000000002,89.99999999999999,0.0,104.53846153846149,1.8245403488156098,0.0,0.0,0.0,0.0,0.0
-0.16358428686843154,0.5815841994842592,0.10000000000000002,90.0,0.0,130.15384615384613,2.2716131495187732,0.0,0.0,0.0,0.0,0.0
-0.35329074890467194,0.4900873868386902,0.10000000000000002,90.0,0.0,150.23076923076923,2.622021560880712,0.0,0.0,0.0,0.0,0.0
-0.4203957176382128,0.4338979610362925,0.10000000000000002,90.0,1.2722218725854067e-14,158.5384615384615,2.767018144892548,0.0,0.0,0.0,0.0,0.0
-0.4256077117163441,0.4287867485447484,0.10000000000000002,90.0,1.2722218725854067e-14,159.23076923076923,2.7791011935602015,0.0,0.0,0.0,0.0,0.0
-0.4203957176382128,0.4338979610362925,0.10000000000000002,90.0,1.2722218725854067e-14,158.5384615384615,2.767018144892548,0.0,0.0,0.0,0.0,0.0
-0.2916413549298728,0.5290985920361799,0.10000000000000002,90.00000000000001,0.0,143.3076923076923,2.5011910742041805,0.0,0.0,0.0,0.0,0.0
-0.27877119617784174,0.5359912500979613,0.10000000000000002,90.00000000000001,0.0,141.92307692307693,2.4770249768688752,0.0,0.0,0.0,0.0,0.0
-0.012351219037377188,0.6040260320452181,0.10000000000000002,90.0,0.0,115.61538461538458,2.017869127498059,0.0,0.0,0.0,0.0,0.0
0.3268455771258347,0.5081062573057727,0.10000000000000002,90.0,0.0,81.6923076923077,1.4257997427830598,0.0,0.0,0.0,0.0,0.0
0.5919056599793393,0.12102764016712333,0.10000000000000002,90.0,0.0,36.0,0.6283185307179586,0.0,0.0,0.0,0.0,0.0
0.5233039188660779,-0.3019155651823956,0.10000000000000002,90.0,0.0,-5.538461538461548,-0.09666438934122455,0.0,0.0,0.0,0.0,0.0
0.27877119617784196,-0.5359912500979612,0.10000000000000002,90.0,0.0,-38.076923076923066,-0.6645676767209175,0.0,0.0,0.0,0.0,0.0
0.10668964422872151,-0.5946573129243,0.10000000000000002,90.0,1.2722218725854067e-14,-55.38461538461539,-0.9666438934122441,0.0,0.0,0.0,0.0,0.0
-0.009547527868013023,-0.6040768533155442,0.10000000000000002,90.0,1.2722218725854067e-14,-66.46153846153847,-1.1599726720946928,0.0,0.0,0.0,0.0,0.0
-0.24333623515705294,-0.5529805391327902,0.10000000000000002,89.99999999999999,0.0,-89.30769230769229,-1.5587132781272433,0.0,0.0,0.0,0.0,0.0
-0.3627915779296113,-0.4830965441641481,0.10000000000000002,90.0,0.0,-102.46153846153844,-1.7882912028126514,0.0,0.0,0.0,0.0,0.0
-0.4236129339216658,-0.43075756779687396,0.10000000000000002,90.0,0.0,-110.07692307692305,-1.921204738156835,0.0,0.0,0.0,0.0,0.0
-0.48578288544006265,-0.35918656463393356,0.10000000000000002,90.0,0.0,-119.07692307692305,-2.0782843708363243,0.0,0.0,0.0,0.0,0.0
-0.5255361373545969,-0.2980130338331031,0.10000000000000002,90.00000000000001,0.0,-125.99999999999994,-2.1991148575128547,0.0,0.0,0.0,0.0,0.0
-0.5457421471413558,-0.2591630931161741,0.10000000000000002,90.0,0.0,-130.1538461538461,-2.2716131495187732,0.0,0.0,0.0,0.0,0.0
-0.5682072697215008,-0.2052815107008851,0.10000000000000002,90.00000000000001,0.0,-135.69230769230768,-2.368277538859998,0.0,0.0,0.0,0.0,0.0
-0.5774615760543043,-0.17758977498966258,0.10000000000000002,90.0,0.0,-138.4615384615384,-2.4166097335306094,0.0,0.0,0.0,0.0,0.0
-0.5815841994842592,-0.16358428686843215,0.10000000000000002,90.0,1.2722218725854067e-14,-139.84615384615378,-2.4407758308659155,0.0,0.0,0.0,0.0,0.0
-0.5810822637376807,-0.16316081087706577,0.08189129995955953,90.00000000000001,4.15384615384614,-139.84615384615378,-2.4407758308659155,0.0,-0.07249829200591792,0.0,0.0,0.0
-0.5814586743170937,-0.1634783830849915,0.09093969801050188,90.00000000000001,2.0769230769230953,-139.84615384615378,-2.4407758308659155,0.0,-0.036249146002959455,0.0,0.0,0.0
-0.5788567542998246,-0.1612831804793193,0.1420892603367596,90.0,-9.692307692307669,-139.84615384615378,-2.4407758308659155,0.0,0.1691626813471425,0.0,0.0,0.0
-0.5515906500879361,-0.1382791593659861,0.23446640986546965,90.0,-32.538461538461554,-139.84615384615378,-2.4407758308659155,0.0,0.5679032873796935,0.0,0.0,0.0
-0.5009426217858667,-0.09554814420682381,0.30401500045405117,90.0,-54.69230769230768,-139.84615384615378,-2.4407758308659155,0.0,0.9545608447445908,0.0,0.0,0.0
-0.4971424776029398,-0.09234201705574949,0.3074468939337487,89.99999999999999,-56.07692307692303,-139.84615384615378,-2.4407758308659155,0.0,0.9787269420798964,0.0,0.0,0.0
-0.4668154267099239,-0.06675551912313007,0.3291980488291456,90.00000000000001,-66.46153846153845,-139.84615384615378,-2.4407758308659155,0.0,1.1599726720946928,0.0,0.0,0.0
-0.45609911760106575,-0.05771432280548042,0.3348081477867788,90.0,-69.9230769230769,-139.84615384615378,-2.4407758308659155,0.0,1.2203879154329578,0.0,0.0,0.0
-0.4362334504447604,-0.04095394430979332,0.342735454356513,89.99999999999999,-76.15384615384613,-139.84615384615378,-2.4407758308659155,0.0,1.329135353441835,0.0,0.0,0.0
-0.3974302005912634,-0.008216198867355307,0.3498357679113603,89.9999999999998,-87.9230769230769,-139.84615384615358,-2.4407758308659155,0.0,1.534547180791937,0.0,0.0,0.0
-0.3881965095163998,-0.00042586612346651176,0.34998175021390265,-89.99999999999876,-89.30769230769232,40.15384615384496,-2.4407758308659155,0.0,1.5828793754625494,0.0,0.0,0.0
-0.38588808675998704,0.0015217170521257262,0.34992700352004824,-89.99999999999966,-88.61538461538464,40.15384615384585,-2.4407758308659155,0.0,1.5949624241302023,0.0,0.0,0.0
-0.40204232803849466,-0.01210738465425737,0.3495438885558294,89.99999999999996,-86.53846153846155,-139.84615384615373,-2.4407758308659155,0.0,1.5103810834566316,0.0,0.0,0.0
-0.4604165734866981,-0.061356898421606215,0.33266584586307557,90.00000000000001,-68.53846153846155,-139.84615384615378,-2.4407758308659155,0.0,1.1962218180976523,0.0,0.0,0.0
-0.5607578427343182,-0.14601338833938735,0.2134976249348867,90.00000000000001,-27.0,-139.84615384615378,-2.4407758308659155,0.0,0.47123889803846897,0.0,0.0,0.0
-0.5806921732406213,-0.1628316971187991,0.0758715197713712,90.00000000000001,5.538461538461554,-139.84615384615378,-2.4407758308659155,0.0,-0.09666438934122455,0.0,0.0,0.0
-0.580455462295585,-0.1626319874890311,0.07286669414565845,90.0,6.230769230769223,-139.84615384615378,-2.4407758308659155,0.0,-0.10874743800887739,0.0,0.0,0.0
-0.5806921732406213,-0.1628316971187991,0.0758715197713712,90.00000000000001,5.538461538461554,-139.84615384615378,-2.4407758308659155,0.0,-0.09666438934122455,0.0,0.0,0.0
-0.5707522814101728,-0.1544455529247126,0.182976963282132,90.00000000000001,-19.38461538461535,-139.84615384615378,-2.4407758308659155,0.0,0.338325362694285,0.0,0.0,0.0
-0.4952189129545274,-0.09071913314681004,0.30911753450255675,89.99999999999999,-56.769230769230774,-139.84615384615378,-2.4407758308659155,0.0,0.9908099907475503,0.0,0.0,0.0
-0.38588808675998704,0.0015217170521257262,0.34992700352004824,-89.99999999999966,-88.61538461538464,40.15384615384585,-2.4407758308659155,0.0,1.5949624241302023,0.0,0.0,0.0
-0.3812736004767864,0.005414892955108247,0.34970805670808164,-89.99999999999989,-87.23076923076923,40.153846153846075,-2.4407758308659155,0.0,1.619128521465509,0.0,0.0,0.0
-0.3314586326686471,0.047443066922066124,0.3377641290737884,-89.99999999999999,-72.00000000000001,40.153846153846175,-2.4407758308659155,0.0,1.8849555921538759,0.0,0.0,0.0
-0.31845039043801443,0.05841793434703374,0.33154366223944415,-90.0,-67.84615384615385,40.15384615384619,-2.4407758308659155,0.0,1.957453884159794,0.0,0.0,0.0
-0.31208402956758047,0.06378914171646444,0.3279749614980225,-89.99999999999997,-65.76923076923077,40.15384615384617,-2.4407758308659155,0.0,1.9937030301627532,0.0,0.0,0.0
-0.2996686397564531,0.07426382805691015,0.3199440630133795,-89.99999999999999,-61.615384615384635,40.153846153846175,-2.4407758308659155,0.0,2.0662013221686713,0.0,0.0,0.0
-0.2857916257410668,0.08597166577803125,0.30911753450255675,-90.00000000000001,-56.76923076923079,40.1538461538462,-2.4407758308659155,0.0,2.150782662842243,0.0,0.0,0.0
-0.27448930693482665,0.0955072700736757,0.29864441992843865,-89.99999999999999,-52.61538461538465,40.153846153846175,-2.4407758308659155,0.0,2.223280954848161,0.0,0.0,0.0
-0.2726632869709703,0.09704785693109716,0.2967958701522627,-90.0,-51.92307692307698,40.15384615384619,-2.4407758308659155,0.0,2.2353640035158135,0.0,0.0,0.0
-0.2708544717348872,0.09857392840642117,0.29491858851580577,-90.0,-51.23076923076928,40.15384615384619,-2.4407758308659155,0.0,2.2474470521834666,0.0,0.0,0.0
-0.26906312531050647,0.10008526169582377,0.2930128490989743,-90.0,-50.53846153846157,40.15384615384619,-2.4407758308659155,0.0,2.25953010085112,0.0,0.0,0.0
-0.2708544717348872,0.09857392840642117,0.29491858851580577,-90.0,-51.23076923076928,40.15384615384619,-2.4407758308659155,0.0,2.2474470521834666,0.0,0.0,0.0
-0.30582070296916924,0.06907342054815509,0.32410673432392606,-90.0,-63.69230769230774,40.15384615384619,-2.4407758308659155,0.0,2.0299521761657116,0.0,0.0,0.0
-0.3078965193746687,0.06732208401513134,0.32542911840104494,-90.0,-64.38461538461542,40.15384615384619,-2.4407758308659155,0.0,2.017869127498059,0.0,0.0,0.0
-0.41811408235591824,-0.02566689329448016,0.3473765998627628,89.99999999999993,-81.69230769230768,-139.84615384615373,-2.4407758308659155,0.0,1.4257997427830598,0.0,0.0,0.0
-0.5189329193507848,-0.1107263002720412,0.28511093978633084,90.0,-47.769230769230774,-139.84615384615378,-2.4407758308659155,0.0,0.8337303580680606,0.0,0.0,0.0
-0.5409194466436709,-0.1292760180507145,0.2541797181571358,90.00000000000001,-38.07692307692309,-139.84615384615378,-2.4407758308659155,0.0,0.6645676767209181,0.0,0.0,0.0
-0.5394846107770348,-0.12806546760633267,0.25654629938457846,90.0,-38.76923076923078,-139.84615384615378,-2.4407758308659155,0.0,0.676650725388571,0.0,0.0,0.0
-0.5083472517246242,-0.10179532429987606,0.2967958701522625,90.00000000000001,-51.923076923076906,-139.84615384615378,-2.4407758308659155,0.0,0.9062286500739785,0.0,0.0,0.0
-0.504678273664928,-0.0986998601259804,0.3004639679592297,89.99999999999999,-53.30769230769233,-139.84615384615378,-2.4407758308659155,0.0,0.9303947474092852,0.0,0.0,0.0
-0.3560623295706086,0.026685280675800838,0.3459049767367859,-89.99999999999993,-79.61538461538464,40.15384615384612,-2.4407758308659155,0.0,1.752042056809692,0.0,0.0,0.0
-0.25058415596184114,0.11567570313717898,0.2702539646966995,-90.0,-42.923076923076984,40.15384615384619,-2.4407758308659155,0.0,2.392443636195303,0.0,0.0,0.0
-0.23457339727359755,0.12918375063977197,0.24449179765555376,-90.0,-35.3076923076923,40.15384615384619,-2.4407758308659155,0.0,2.5253571715394876,0.0,0.0,0.0
-0.23067345028570443,0.13247407998617183,0.23700312683866767,-90.0,-33.23076923076927,40.15384615384619,-2.4407758308659155,0.0,2.561606317542446,0.0,0.0,0.0
-0.22818984511954749,0.13456946204865758,0.23191006102653325,-89.99999999999997,-31.84615384615386,40.15384615384618,-2.4407758308659155,0.0,2.5857724148777526,0.0,0.0,0.0
-0.2269834994056164,0.1355872386278709,0.22933445354441437,-90.0,-31.153846153846192,40.153846153846196,-2.4407758308659155,0.0,2.597855463545405,0.0,0.0,0.0
-0.2213132792830983,0.1403711220313085,0.21618079301094237,-90.0,-27.692307692307747,40.15384615384619,-2.4407758308659155,0.0,2.65827070688367,0.0,0.0,0.0
-0.21267510572055148,0.14765902519008914,0.19146914326055323,-90.0,-21.461538461538495,40.15384615384619,-2.4407758308659155,0.0,2.767018144892548,0.0,0.0,0.0
-0.20443976653403542,0.1546070627626689,0.1568916356726477,-90.0,-13.15384615384619,40.15384615384619,-2.4407758308659155,0.0,2.9120147289043845,0.0,0.0,0.0
-0.2003183654549731,0.15808422975002037,0.12412848022862889,-90.0,-5.538461538461554,40.15384615384619,-2.4407758308659155,0.0,3.0449282642485684,0.0,0.0,0.0
-0.20055507640000944,0.15788452012025234,0.12713330585434182,-90.0,-6.2307692307692735,40.15384615384619,-2.4407758308659155,0.0,3.032845215580915,0.0,0.0,0.0
-0.205544811319498,0.153674752324096,0.16275746155176551,-90.0,-14.538461538461554,40.15384615384619,-2.4407758308659155,0.0,2.887848631569079,0.0,0.0,0.0
-0.20675786780389127,0.15265131396407972,0.16858663884061165,-90.00000000000001,-15.923076923076968,40.1538461538462,-2.4407758308659155,0.0,2.863682534233772,0.0,0.0,0.0
-0.2537693855220465,0.11298837063509648,0.2746278413122343,-90.0,-44.30769230769231,40.15384615384619,-2.4407758308659155,0.0,2.368277538859998,0.0,0.0,0.0
-0.3292671819403928,0.0492919624749413,0.3368133283644627,-89.99999999999999,-71.30769230769234,40.153846153846175,-2.4407758308659155,0.0,1.8970386408215287,0.0,0.0,0.0
-0.3628964563396762,0.020919425925701257,0.3473765998627628,-89.99999999999991,-81.69230769230774,40.153846153846104,-2.4407758308659155,0.0,1.7157929108067325,0.0,0.0,0.0
-0.37896821065709957,0.007359917285478634,0.3495438885558294,-89.99999999999994,-86.53846153846155,40.15384615384614,-2.4407758308659155,0.0,1.6312115701331618,0.0,0.0,0.0
-0.4066477181683387,-0.015992886263096612,0.349106282596634,89.9999999999999,-85.15384615384615,-139.84615384615367,-2.4407758308659155,0.0,1.486214986121325,0.0,0.0,0.0
-0.4495519060269472,-0.05219053429084489,0.3377641290737884,90.00000000000001,-72.0,-139.84615384615378,-2.4407758308659155,0.0,1.2566370614359172,0.0,0.0,0.0
-0.48935762539999966,-0.08577404889099302,0.3139453180753618,90.00000000000001,-58.84615384615381,-139.84615384615378,-2.4407758308659155,0.0,1.0270591367505086,0.0,0.0,0.0
-0.5137210294642536,-0.10632910351600974,0.291078930136462,89.99999999999999,-49.84615384615382,-139.84615384615378,-2.4407758308659155,0.0,0.8699795040710191,0.0,0.0,0.0
-0.5239760737077236,-0.11498113728151152,0.27889974018603025,90.00000000000001,-45.69230769230767,-139.84615384615378,-2.4407758308659155,0.0,0.7974812120651011,0.0,0.0,0.0
-0.52561847658916,-0.1163668090396606,0.27677669529663684,90.0,-44.999999999999986,-139.84615384615378,-2.4407758308659155,0.0,0.7853981633974483,0.0,0.0,0.0
-0.5304263827337534,-0.12042317050595788,0.2702539646966992,90.00000000000001,-42.923076923076906,-139.84615384615378,-2.4407758308659155,0.0,0.7491490173944888,0.0,0.0,0.0
-0.5380280241814867,-0.1268365663838846,0.25889002512019627,90.0,-39.461538461538446,-139.84615384615378,-2.4407758308659155,0.0,0.6887337740562237,0.0,0.0,0.0
-0.5437230314620356,-0.13164136235709198,0.24937937458043177,90.0,-36.69230769230768,-139.84615384615378,-2.4407758308659155,0.0,0.6404015793856115,0.0,0.0,0.0
-0.5450913710951782,-0.13279581088286627,0.2469463130731183,90.0,-36.0,-139.84615384615378,-2.4407758308659155,0.0,0.6283185307179586,0.0,0.0,0.0
-0.5596972594124962,-0.14511858940008734,0.2161807930109421,90.00000000000001,-27.69230769230767,-139.84615384615378,-2.4407758308659155,0.0,0.4833219467061218,0.0,0.0,0.0
-0.5699728280134849,-0.15378793927169768,0.18582035733403965,90.00000000000001,-20.076923076923094,-139.84615384615378,-2.4407758308659155,0.0,0.3504084113619388,0.0,0.0,0.0
-0.5780244231184011,-0.1605809545976181,0.14803167933842717,90.0,-11.076923076923082,-139.84615384615378,-2.4407758308659155,0.0,0.1933287786824491,0.0,0.0,0.0
-0.5801910189474251,-0.16240888042844495,0.13013417006383068,89.99999999999997,-6.923076923076905,-139.8461538461538,-2.4407758308659155,0.0,0.12083048667653021,0.0,0.0,0.0
-0.5801910189474251,-0.16240888042844495,0.13013417006383068,90.00000000000001,-11.769230769230777,-139.84615384615378,-2.4407758308659155,0.0,0.12083048667653021,0.08458134067357173,0.0,0.0
-0.5801910189474251,-0.16240888042844495,0.13013417006383068,90.0,-10.38461538461535,-139.84615384615378,-2.4407758308659155,0.0,0.12083048667653021,0.060415243338265104,0.0,0.0
-0.5801910189474251,-0.16240888042844495,0.13013417006383068,89.99999999999997,-6.923076923076905,-139.8461538461538,-2.4407758308659155,0.0,0.12083048667653021,0.0,0.0,0.0
-0.5801910189474251,-0.16240888042844495,0.13013417006383068,90.0,-0.6923076923076689,-139.84615384615378,-2.4407758308659155,0.0,0.12083048667653021,-0.10874743800887739,0.0,0.0
-0.5801910189474251,-0.16240888042844495,0.13013417006383068,90.0,4.153846153846191,-139.84615384615378,-2.4407758308659155,0.0,0.12083048667653021,-0.1933287786824491,0.0,0.0
-0.5801910189474251,-0.16240888042844495,0.13013417006383068,90.00000000000001,20.07692307692311,-139.84615384615378,-2.4407758308659155,0.0,0.12083048667653021,-0.47123889803846897,0.0,0.0
-0.5801910189474251,-0.16240888042844495,0.13013417006383068,90.00000000000001,49.84615384615388,-139.84615384615378,-2.4407758308659155,0.0,0.12083048667653021,-0.9908099907475503,0.0,0.0
-0.5801910189474251,-0.16240888042844495,0.13013417006383068,-89.9999999999999,86.53846153846155,40.153846153846295,-2.4407758308659155,0.0,0.12083048667653021,-1.752042056809692,0.0,0.0
-0.5801910189474251,-0.16240888042844495,0.13013417006383068,-90.0,60.92307692307694,40.15384615384619,-2.4407758308659155,0.0,0.12083048667653021,-2.1991148575128547,0.0,0.0
-0.5801910189474251,-0.16240888042844495,0.13013417006383068,-89.99999999999994,50.538461538461554,40.15384615384622,-2.4407758308659155,0.0,0.12083048667653021,-2.3803605875276506,0.0,0.0
-0.5801910189474251,-0.16240888042844495,0.13013417006383068,-90.0,45.69230769230772,40.15384615384622,-2.4407758308659155,0.0,0.12083048667653021,-2.4649419282012217,0.0,0.0
-0.5801910189474251,-0.16240888042844495,0.13013417006383068,-90.0,46.38461538461539,40.15384615384619,-2.4407758308659155,0.0,0.12083048667653021,-2.452858879533569,0.0,0.0
-0.5801910189474251,-0.16240888042844495,0.13013417006383068,-90.0,53.30769230769233,40.15384615384619,-2.4407758308659155,0.0,0.12083048667653021,-2.3320283928570382,0.0,0.0
-0.5801910189474251,-0.16240888042844495,0.13013417006383068,-90.0,54.69230769230772,40.15384615384619,-2.4407758308659155,0.0,0.12083048667653021,-2.307862295521732,0.0,0.0
-0.5801910189474251,-0.16240888042844495,0.13013417006383068,-90.0,76.15384615384616,40.15384615384619,-2.4407758308659155,0.0,0.12083048667653021,-1.9332877868244878,0.0,0.0
-0.5801910189474251,-0.16240888042844495,0.13013417006383068,-130.1538461538462,90.0,0.0,-2.4407758308659155,0.0,0.12083048667653021,-1.6916268134714267,0.0,0.0
-0.5801910189474251,-0.16240888042844495,0.13013417006383068,-89.99999999999994,87.92307692307695,40.15384615384622,-2.4407758308659155,0.0,0.12083048667653021,-1.7278759594743858,0.0,0.0
-0.5801910189474251,-0.16240888042844495,0.13013417006383068,-89.99999999999994,65.76923076923077,40.15384615384622,-2.4407758308659155,0.0,0.12083048667653021,-2.1145335168392836,0.0,0.0
-0.5801910189474251,-0.16240888042844495,0.13013417006383068,-90.0,41.538461538461554,40.15384615384619,-2.4407758308659155,0.0,0.12083048667653021,-2.53744022020714,0.0,0.0
-0.5801910189474251,-0.16240888042844495,0.13013417006383068,-90.0,35.30769230769233,40.15384615384619,-2.4407758308659155,0.0,0.12083048667653021,-2.6461876582160175,0.0,0.0
-0.5801910189474251,-0.16240888042844495,0.13013417006383068,-90.0,36.0,40.15384615384619,-2.4407758308659155,0.0,0.12083048667653021,-2.634104609548365,0.0,0.0
-0.5801910189474251,-0.16240888042844495,0.13013417006383068,-90.0,43.61538461538461,40.15384615384619,-2.4407758308659155,0.0,0.12083048667653021,-2.5011910742041814,0.0,0.0
-0.5801910189474251,-0.16240888042844495,0.13013417006383068,-90.0,44.30769230769233,40.15384615384619,-2.4407758308659155,0.0,0.12083048667653021,-2.489108025536528,0.0,0.0
-0.5801910189474251,-0.16240888042844495,0.13013417006383068,-90.0,74.07692307692308,40.15384615384619,-2.4407758308659155,0.0,0.12083048667653021,-1.9695369328274472,0.0,0.0
-0.5801910189474251,-0.16240888042844495,0.13013417006383068,89.99999999999999,69.23076923076923,-139.84615384615384,-2.4407758308659155,0.0,0.12083048667653021,-1.329135353441835,0.0,0.0
-0.5801910189474251,-0.16240888042844495,0.13013417006383068,89.99999999999999,59.538461538461554,-139.84615384615384,-2.4407758308659155,0.0,0.12083048667653021,-1.1599726720946928,0.0,0.0
-0.5801910189474251,-0.16240888042844495,0.13013417006383068,90.0,58.84615384615386,-139.84615384615378,-2.4407758308659155,0.0,0.12083048667653021,-1.1478896234270395,0.0,0.0
-0.5801910189474251,-0.16240888042844495,0.13013417006383068,89.99999999999999,59.538461538461554,-139.84615384615384,-2.4407758308659155,0.0,0.12083048667653021,-1.1599726720946928,0.0,0.0
-0.5801910189474251,-0.16240888042844495,0.13013417006383068,89.99999999999999,68.53846153846155,-139.84615384615384,-2.4407758308659155,0.0,0.12083048667653021,-1.3170523047741824,0.0,0.0
-0.5801910189474251,-0.16240888042844495,0.13013417006383068,89.99999999999991,83.76923076923077,-139.8461538461539,-2.4407758308659155,0.0,0.12083048667653021,-1.5828793754625494,0.0,0.0
-0.5801910189474251,-0.16240888042844495,0.13013417006383068,-89.9999999999999,86.53846153846155,40.153846153846295,-2.4407758308659155,0.0,0.12083048667653021,-1.752042056809692,0.0,0.0
-0.5801910189474251,-0.16240888042844495,0.13013417006383068,-89.99999999999984,85.84615384615384,40.15384615384632,-2.4407758308659155,0.0,0.12083048667653021,-1.7641251054773452,0.0,0.0
-0.5801910189474251,-0.16240888042844495,0.13013417006383068,-89.9999999999999,86.53846153846155,40.153846153846295,-2.4407758308659155,0.0,0.12083048667653021,-1.752042056809692,0.0,0.0
-0.5801910189474251,-0.16240888042844495,0.13013417006383068,90.00000000000001,75.46153846153847,-139.84615384615378,-2.4407758308659155,0.0,0.12083048667653021,-1.4378827914507126,0.0,0.0
-0.5801910189474251,-0.16240888042844495,0.13013417006383068,89.99999999999994,74.76923076923077,-139.84615384615384,-2.4407758308659155,0.0,0.12083048667653021,-1.4257997427830598,0.0,0.0
-0.5801910189474251,-0.16240888042844495,0.13013417006383068,89.99999999999999,56.07692307692311,-139.84615384615384,-2.4407758308659155,0.0,0.12083048667653021,-1.0995574287564276,0.0,0.0
-0.5801910189474251,-0.16240888042844495,0.13013417006383068,90.0,54.69230769230772,-139.84615384615378,-2.4407758308659155,0.0,0.12083048667653021,-1.0753913314211214,0.0,0.0
-0.5801910189474251,-0.16240888042844495,0.13013417006383068,89.99999999999999,62.30769230769231,-139.84615384615384,-2.4407758308659155,0.0,0.12083048667653021,-1.208304866765305,0.0,0.0
-0.5801910189474251,-0.16240888042844495,0.13013417006383068,89.9999999999997,88.61538461538461,-139.8461538461541,-2.4407758308659155,0.0,0.12083048667653021,-1.6674607161361206,0.0,0.0
-0.5801910189474251,-0.16240888042844495,0.13013417006383068,-130.1538461538462,90.0,0.0,-2.4407758308659155,0.0,0.12083048667653021,-1.6916268134714267,0.0,0.0
-0.5801910189474251,-0.16240888042844495,0.13013417006383068,-90.0,58.84615384615386,40.15384615384619,-2.4407758308659155,0.0,0.12083048667653021,-2.235364003515814,0.0,0.0
-0.5801910189474251,-0.16240888042844495,0.13013417006383068,-90.0,42.23076923076922,40.15384615384622,-2.4407758308659155,0.0,0.12083048667653021,-2.5253571715394876,0.0,0.0
-0.5801910189474251,-0.16240888042844495,0.13013417006383068,-90.0,42.92307692307694,40.15384615384619,-2.4407758308659155,0.0,0.12083048667653021,-2.513274122871834,0.0,0.0
-0.5801910189474251,-0.16240888042844495,0.13013417006383068,-90.0,72.0,40.15384615384619,-2.4407758308659155,0.0,0.12083048667653021,-2.0057860788304063,0.0,0.0
-0.5801910189474251,-0.16240888042844495,0.13013417006383068,-90.0,72.69230769230772,40.15384615384622,-2.4407758308659155,0.0,0.12083048667653021,-1.9937030301627527,0.0,0.0
-0.5801910189474251,-0.16240888042844495,0.13013417006383068,89.99999999999999,77.53846153846155,-139.84615384615384,-2.4407758308659155,0.0,0.12083048667653021,-1.474131937453672,0.0,0.0
-0.5801910189474251,-0.16240888042844495,0.13013417006383068,90.0,76.84615384615385,-139.84615384615378,-2.4407758308659155,0.0,0.12083048667653021,-1.4620488887860188,0.0,0.0
-0.5801910189474251,-0.16240888042844495,0.13013417006383068,89.99999999999994,80.30769230769234,-139.84615384615384,-2.4407758308659155,0.0,0.12083048667653021,-1.5224641321242842,0.0,0.0
-0.5801910189474251,-0.16240888042844495,0.13013417006383068,-90.0,69.23076923076923,40.15384615384619,-2.4407758308659155,0.0,0.12083048667653021,-2.0541182735010186,0.0,0.0
-0.5801910189474251,-0.16240888042844495,0.13013417006383068,-90.0,36.0,40.15384615384619,-2.4407758308659155,0.0,0.12083048667653021,-2.634104609548365,0.0,0.0
-0.5801910189474251,-0.16240888042844495,0.13013417006383068,-90.0,31.846153846153886,40.15384615384619,-2.4407758308659155,0.0,0.12083048667653021,-2.7066029015542825,0.0,0.0
-0.5801910189474251,-0.16240888042844495,0.13013417006383068,-90.0,32.538461538461554,40.15384615384619,-2.4407758308659155,0.0,0.12083048667653021,-2.69451985288663,0.0,0.0
-0.5801910189474251,-0.16240888042844495,0.13013417006383068,-90.0,47.769230769230774,40.15384615384619,-2.4407758308659155,0.0,0.12083048667653021,-2.428692782198263,0.0,0.0
-0.5801910189474251,-0.16240888042844495,0.13013417006383068,-89.99999999999984,85.84615384615384,40.15384615384632,-2.4407758308659155,0.0,0.12083048667653021,-1.7641251054773452,0.0,0.0
-0.5801910189474251,-0.16240888042844495,0.13013417006383068,-90.0,88.61538461538461,40.15384615384614,-2.4407758308659155,0.0,0.12083048667653021,-1.715792910806733,0.0,0.0
-0.5801910189474251,-0.16240888042844495,0.13013417006383068,89.99999999999999,65.76923076923077,-139.84615384615384,-2.4407758308659155,0.0,0.12083048667653021,-1.26872011010357,0.0,0.0
-0.5801910189474251,-0.16240888042844495,0.13013417006383068,89.99999999999999,61.61538461538461,-139.84615384615384,-2.4407758308659155,0.0,0.12083048667653021,-1.1962218180976516,0.0,0.0
-0.5801910189474251,-0.16240888042844495,0.13013417006383068,90.00000000000001,60.92307692307694,-139.84615384615378,-2.4407758308659155,0.0,0.12083048667653021,-1.184138769429999,0.0,0.0
-0.5814516001068935,-0.16364425794881868,0.12696888507427717,97.42173490879429,60.65355099960718,-131.34674556599632,-2.4407758308659155,0.0,0.12083048667653021,-1.184138769429999,-0.07249829200591792,0.0
-0.5812535587970995,-0.16342468164219476,0.12749572623357566,96.19699175176254,60.735640991521436,-132.75121310283723,-2.4407758308659155,0.0,0.12083048667653021,-1.184138769429999,-0.060415243338265104,0.0
-0.5814516001068935,-0.16364425794881868,0.12696888507427717,97.42173490879429,60.65355099960718,-131.34674556599632,-2.4407758308659155,0.0,0.12083048667653021,-1.184138769429999,-0.07249829200591792,0.0
-0.5850514470707245,-0.17293906491806488,0.11124213245398273,127.86423163192873,52.005641771241926,-95.2338928779928,-2.4407758308659155,0.0,0.12083048667653021,-1.184138769429999,-0.44707280070316235,0.0
-0.5850826637242511,-0.17331143280702427,0.11076740790462694,128.55531137353307,51.577409098434536,-94.35440682463442,-2.4407758308659155,0.0,0.12083048667653021,-1.184138769429999,-0.45915584937081616,0.0
-0.5807376642151924,-0.1937709041241283,0.09301377906195737,146.7910660533764,27.460739705772074,-66.64336698714858,-2.4407758308659155,0.0,0.12083048667653021,-1.184138769429999,-1.0149760880828558,0.0
-0.5749651702381142,-0.20471190699950387,0.08826035896187545,149.87361324201282,14.47203159880731,-58.097666122729976,-2.4407758308659155,0.0,0.12083048667653021,-1.184138769429999,-1.280803158771223,0.0
-0.5702720908979841,-0.21157314784535125,0.08675437898051258,150.74465089255452,6.047055672469945,-53.223208420692075,-2.4407758308659155,0.0,0.12083048667653021,-1.184138769429999,-1.449965840118366,0.0
-0.5665211464439092,-0.21629379743315927,0.08643576843250478,150.92307692307693,2.5444437451708134e-14,-49.846153846153825,-2.4407758308659155,0.0,0.12083048667653021,-1.184138769429999,-1.5707963267948961,0.0
-0.5661302171742314,-0.2167544055662841,0.08643895837843504,150.92130035598672,-0.6050513143913279,-49.509691283638425,-2.4407758308659155,0.0,0.12083048667653021,-1.184138769429999,-1.5828793754625494,0.0
-0.5665211464439092,-0.21629379743315927,0.08643576843250478,150.92307692307693,2.5444437451708134e-14,-49.846153846153825,-2.4407758308659155,0.0,0.12083048667653021,-1.184138769429999,-1.5707963267948961,0.0
-0.5752723379714246,-0.20421499971134102,0.08841439419333277,149.78186498563053,15.07054625237489,-58.45751187845798,-2.4407758308659155,0.0,0.12083048667653021,-1.184138769429999,-1.26872011010357,0.0
-0.5845682234672434,-0.18151985751319505,0.1019555960628526,139.2278848686306,41.91192897601842,-79.78914036530226,-2.4407758308659155,0.0,0.12083048667653021,-1.184138769429999,-0.700816822723877,0.0
-0.5785067651306554,-0.16122176042953418,0.13382583408649074,81.36136875527946,60.556832643091255,-149.74225630863253,-2.4407758308659155,0.0,0.12083048667653021,-1.184138769429999,0.08458134067357173,0.0
-0.5584803771548609,-0.16214816160246565,0.16027793788172087,38.87260929913249,39.25265414035878,157.1780897697561,-2.4407758308659155,0.0,0.12083048667653021,-1.184138769429999,0.7612320660621417,0.0
-0.5473864968652135,-0.16835810874913998,0.16832517616648401,32.46671057986422,25.133825590312323,145.27616120058724,-2.4407758308659155,0.0,0.12083048667653021,-1.184138769429999,1.0633082827534681,0.0
-0.5442454622973093,-0.17065174037455305,0.16998273578153728,31.374330739641934,21.019623333731253,142.49147783113366,-2.4407758308659155,0.0,0.12083048667653021,-1.184138769429999,1.14788962342704,0.0
-0.540689433432393,-0.17353441273688847,0.1715276258019161,30.414181863467466,16.265836526443238,139.4910778183765,-2.4407758308659155,0.0,0.12083048667653021,-1.184138769429999,1.2445540127682644,0.0
-0.5367715500173326,-0.17707832060807666,0.17280308449583737,29.660725910627065,10.870421537625376,136.28378587064228,-2.4407758308659155,0.0,0.12083048667653021,-1.184138769429999,1.353301450777142,0.0
-0.5313572844127232,-0.18267671122001194,0.17375284633085253,29.12138376020053,3.02483883293091,131.83766124562067,-2.4407758308659155,0.0,0.12083048667653021,-1.184138769429999,1.5103810834566316,0.0
-0.5270900058260233,-0.1877648487637691,0.17371778253535,29.140977191578887,-3.629576497790693,128.13244069873477,-2.4407758308659155,0.0,0.12083048667653021,-1.184138769429999,1.6432946188008146,0.0
-0.5206254786498085,-0.1970343332001336,0.17185394593432862,30.218135014369473,-15.0705462523748,121.54248812154206,-2.4407758308659155,0.0,0.12083048667653021,-1.184138769429999,1.8728725434862221,0.0
-0.5172628516942226,-0.2030173029209601,0.16953773868496902,31.661070660025555,-22.19999785751237,117.03768190510786,-2.4407758308659155,0.0,0.12083048667653021,-1.184138769429999,2.017869127498059,0.0
-0.5162819819052029,-0.20500666304975418,0.16857898607176794,32.29506637213766,-24.549164473080694,115.44009461852711,-2.4407758308659155,0.0,0.12083048667653021,-1.184138769429999,2.0662013221686713,0.0
-0.5160482349103696,-0.20550258501572527,0.16832517616648401,32.4667105798642,-25.13382559031226,115.0315311071052,-2.4407758308659155,0.0,0.12083048667653021,-1.184138769429999,2.078284370836324,0.0
-0.5143486495604052,-0.20943826527947046,0.16609724957175295,34.045710516430674,-29.76675891699498,111.60981158813617,-2.4407758308659155,0.0,0.12083048667653021,-1.184138769429999,2.1749487601775486,0.0
-0.513791424821964,-0.21089488263833597,0.16517399000179733,34.740265334267285,-31.480691130961983,110.24652952009988,-2.4407758308659155,0.0,0.12083048667653021,-1.184138769429999,2.2111979061805083,0.0
-0.513972214902106,-0.21041074863952328,0.16548691961059528,34.50209033395376,-30.91096936921267,110.7063506132734,-2.4407758308659155,0.0,0.12083048667653021,-1.184138769429999,2.199114857512855,0.0
-0.5153750716901011,-0.20698578882246163,0.16753044380942644,33.01481144422409,-26.88085601216002,113.78173238089126,-2.4407758308659155,0.0,0.12083048667653021,-1.184138769429999,2.1145335168392836,0.0
-0.5218776332945657,-0.19505057417250155,0.17243332034200315,29.875645199383648,-12.673328321354548,122.97061949517477,-2.4407758308659155,0.0,0.12083048667653021,-1.184138769429999,1.8245403488156098,0.0
-0.5367715500173326,-0.17707832060807666,0.17280308449583737,29.660725910627065,10.870421537625376,136.28378587064228,-2.4407758308659155,0.0,0.12083048667653021,-1.184138769429999,1.353301450777142,0.0
-0.5482856580887233,-0.1677444815490615,0.16780086676117528,32.826475263307955,26.299713372291382,146.1052049194842,-2.4407758308659155,0.0,0.12083048667653021,-1.184138769429999,1.0391421854181626,0.0
-0.5491846226598458,-0.16715005545104974,0.167254561065704,33.20893394662362,27.460739705772074,146.951059294841,-2.4407758308659155,0.0,0.12083048667653021,-1.184138769429999,1.0149760880828558,0.0
-0.5487351977727426,-0.16744484640158067,0.16753044380942642,33.01481144422409,26.880856012160084,146.5259599268012,-2.4407758308659155,0.0,0.12083048667653021,-1.184138769429999,1.0270591367505086,0.0
-0.540689433432393,-0.17353441273688847,0.1715276258019161,30.414181863467466,16.265836526443238,139.4910778183765,-2.4407758308659155,0.0,0.12083048667653021,-1.184138769429999,1.2445540127682644,0.0
-0.5398097314041842,-0.17429570710294068,0.1718539459343286,30.218135014369487,15.070546252374864,138.76520418615038,-2.4407758308659155,0.0,0.12083048667653021,-1.184138769429999,1.26872011010357,0.0
-0.5203223000904721,-0.19753176467080796,0.17169381968698597,30.314049090290187,-15.668490297115016,121.18061321669659,-2.4407758308659155,0.0,0.12083048667653021,-1.184138769429999,1.8849555921538759,0.0
-0.5107445346300663,-0.22640910403033307,0.1513708684418687,48.847580036469154,-49.80213876402102,89.0014261903154,-2.4407758308659155,0.0,0.12083048667653021,-1.184138769429999,2.634104609548365,0.0
-0.5131984134214808,-0.23591876061947428,0.13697010614614033,74.28744147031468,-59.67871199159453,58.20489596097785,-2.4407758308659155,0.0,0.12083048667653021,-1.184138769429999,2.9845130209103026,0.0
-0.5135299331941356,-0.23642687592688388,0.13592519319581858,76.59521591704898,-60.02685097581267,55.536273728508725,-2.4407758308659155,0.0,0.12083048667653021,-1.184138769429999,3.008679118245609,0.0
-0.5128871869592538,-0.2353900345549684,0.1380110271022926,72.03929886013935,-59.27757170494662,60.814526829719405,-2.4407758308659155,0.0,0.12083048667653021,-1.184138769429999,2.960346923574997,0.0
-0.511216204761357,-0.23080069669794265,0.14562983683824637,57.4741987357382,-54.80292315564574,78.12148220759977,-2.4407758308659155,0.0,0.12083048667653021,-1.184138769429999,2.7791011935602015,0.0
-0.5117946609093088,-0.2174836004844998,0.1602779378817209,38.87260929913247,-39.25265414035875,103.1296025379363,-2.4407758308659155,0.0,0.12083048667653021,-1.184138769429999,2.3803605875276506,0.0
-0.5122617973098834,-0.215642207584283,0.16177123008643385,37.52643667538475,-37.076108632794735,105.30760325846073,-2.4407758308659155,0.0,0.12083048667653021,-1.184138769429999,2.3320283928570382,0.0
-0.5263515596529229,-0.18871704005569914,0.17362857159408668,29.190936308499584,-4.838653070258233,127.45582678660062,-2.4407758308659155,0.0,0.12083048667653021,-1.184138769429999,1.6674607161361212,0.0
-0.5437983824282009,-0.17099729799581825,0.1701965236272397,31.238226417766054,20.42811196910752,142.1068615011586,-2.4407758308659155,0.0,0.12083048667653021,-1.184138769429999,1.1599726720946928,0.0
-0.5554278625630281,-0.16355439988745668,0.16284289336277571,36.60849923502594,35.41875799710751,153.4478380305372,-2.4407758308659155,0.0,0.12083048667653021,-1.184138769429999,0.8458134067357134,0.0
-0.5614575944907807,-0.16101702029353915,0.15749746232145106,41.60574041257551,42.95396002583301,161.33225584483225,-2.4407758308659155,0.0,0.12083048667653021,-1.184138769429999,0.676650725388571,0.0
-0.5689928541604661,-0.15939066036832586,0.14902620767367863,52.135768368071275,52.005641771241926,175.54158518568522,-2.4407758308659155,0.0,0.12083048667653021,-1.184138769429999,0.44707280070316235,0.0
-0.5757250093634028,-0.16001625026039573,0.13904734819574974,69.8564591422798,58.82549260713402,-163.05190332228898,-2.4407758308659155,0.0,0.12083048667653021,-1.184138769429999,0.20541182735010194,0.0
-0.5785067651306554,-0.16122176042953418,0.13382583408649074,81.36136875527946,60.556832643091255,-149.74225630863253,-2.4407758308659155,0.0,0.12083048667653021,-1.184138769429999,0.08458134067357173,0.0
-0.5792560798861823,-0.1616964791262021,0.13224538752650297,85.03436383551124,60.802978372394534,-145.53007581507197,-2.4407758308659155,0.0,0.12083048667653021,-1.184138769429999,0.048332194670612276,0.0
-0.5790108311325853,-0.1615325244735353,0.1327726138940857,83.80300824823746,60.735640991521436,-146.9410945894704,-2.4407758308659155,0.0,0.12083048667653021,-1.184138769429999,0.060415243338265104,0.0
-0.5771691980812946,-0.1605458837791761,0.13644811058323508,75.43427377061214,59.85952895894462,-156.56987364521416,-2.4407758308659155,0.0,0.12083048667653021,-1.184138769429999,0.14499658401183685,0.0
-0.5760221293468013,-0.16011037700313918,0.1385298005228613,70.93940641491464,59.05776472017771,-161.78774260410498,-2.4407758308659155,0.0,0.12083048667653021,-1.184138769429999,0.1933287786824491,0.0
-0.5732058265542741,-0.1594776437884154,0.14313457799774135,61.852574175735185,56.55294770556154,-172.51414971503723,-2.4407758308659155,0.0,0.12083048667653021,-1.184138769429999,0.3020762166913265,0.0
-0.5651406247071341,-0.15997970315472657,0.1536380388007258,45.95314525594166,47.4579889507564,167.45081698115763,-2.4407758308659155,0.0,0.12083048667653021,-1.184138769429999,0.5679032873796935,0.0
-0.564740652258115,-0.16007142288831305,0.154081440709205,45.4178966923236,46.97433719212179,166.72152855083982,-2.4407758308659155,0.0,0.12083048667653021,-1.184138769429999,0.5799863360473464,0.0
-0.5518750891723027,-0.16548539777630883,0.16548691961059528,34.50209033395376,30.91096936921268,149.601341694419,-2.4407758308659155,0.0,0.12083048667653021,-1.184138769429999,0.9424777960769379,0.0
-0.5402490203330543,-0.17391310999914794,0.17169381968698597,30.314049090290194,15.668490297115003,139.1270790909958,-2.4407758308659155,0.0,0.12083048667653021,-1.184138769429999,1.2566370614359172,0.0
-0.5317609075075647,-0.18222854311594588,0.17371778253535,29.140977191578894,3.629576497790744,132.17525160895764,-2.4407758308659155,0.0,0.12083048667653021,-1.184138769429999,1.4982980347889776,0.0
-0.52784063301078,-0.18682016724323375,0.1737815418742613,29.105366747048777,-2.41999646870244,128.8072450191773,-2.4407758308659155,0.0,0.12083048667653021,-1.184138769429999,1.619128521465509,0.0
-0.5263515596529229,-0.18871704005569914,0.17362857159408668,29.190936308499584,-4.838653070258233,127.45582678660062,-2.4407758308659155,0.0,0.12083048667653021,-1.184138769429999,1.6674607161361212,0.0
-0.5259870394904528,-0.1891957782618518,0.17357443747297063,29.221328239706203,-5.44294935875826,127.11665034108626,-2.4407758308659155,0.0,0.12083048667653021,-1.184138769429999,1.6795437648037739,0.0
-0.5259870394904528,-0.1891957782618518,0.17357443747297063,28.88803300401888,-7.124423019218067,130.16076135996997,-2.4407758308659155,0.0,0.12083048667653021,-1.184138769429999,1.6795437648037739,0.060415243338265104
-0.5259870394904528,-0.1891957782618518,0.17357443747297063,28.961972991260353,-6.789575260220894,129.55032296428797,-2.4407758308659155,0.0,0.12083048667653021,-1.184138769429999,1.6795437648037739,0.048332194670612276
-0.5259870394904528,-0.1891957782618518,0.17357443747297063,29.463894602974058,-3.746292667042495,124.08958992598747,-2.4407758308659155,0.0,0.12083048667653021,-1.184138769429999,1.6795437648037739,-0.060415243338265104
-0.5259870394904528,-0.1891957782618518,0.17357443747297063,29.66318197854794,1.0444304760576735,115.65923720448734,-2.4407758308659155,0.0,0.12083048667653021,-1.184138769429999,1.6795437648037739,-0.22957792468540758
-0.5259870394904528,-0.1891957782618518,0.17357443747297063,28.80291605626716,7.490023111938674,104.1546939120989,-2.4407758308659155,0.0,0.12083048667653021,-1.184138769429999,1.6795437648037739,-0.45915584937081616
-0.5259870394904528,-0.1891957782618518,0.17357443747297063,28.721327962981128,7.82314694307457,103.54234103487852,-2.4407758308659155,0.0,0.12083048667653021,-1.184138769429999,1.6795437648037739,-0.47123889803846897
-0.5259870394904528,-0.1891957782618518,0.17357443747297063,15.785037268791124,25.464377835570286,60.817007280678524,-2.4407758308659155,0.0,0.12083048667653021,-1.184138769429999,1.6795437648037739,-1.244554012768264
-0.5259870394904528,-0.1891957782618518,0.17357443747297063,-12.14578207635933,27.289848344411674,2.3468506571518817,-2.4407758308659155,0.0,0.12083048667653021,-1.184138769429999,1.6795437648037739,-2.1507826628422424
-0.5259870394904528,-0.1891957782618518,0.17357443747297063,-19.92420827657764,22.46408693696805,-15.997372566682955,-2.4407758308659155,0.0,0.12083048667653021,-1.184138769429999,1.6795437648037739,-2.452858879533569
-0.5259870394904528,-0.1891957782618518,0.17357443747297063,-19.65329234313473,22.69847308574065,-15.291859761521668,-2.4407758308659155,0.0,0.12083048667653021,-1.184138769429999,1.6795437648037739,-2.4407758308659155
-0.5259870394904528,-0.1891957782618518,0.17357443747297063,-10.36823474308641,27.965855369133536,6.178840578786296,-2.4407758308659155,0.0,0.12083048667653021,-1.184138769429999,1.6795437648037739,-2.0903674195039774
-0.5259870394904528,-0.1891957782618518,0.17357443747297063,-9.640544408967987,28.206411978066857,7.7244159544046305,-2.4407758308659155,0.0,0.12083048667653021,-1.184138769429999,1.6795437648037739,-2.0662013221686713
-0.5259870394904528,-0.1891957782618518,0.17357443747297063,14.159875631374533,26.35902637440778,57.09914763904984,-2.4407758308659155,0.0,0.12083048667653021,-1.184138769429999,1.6795437648037739,-1.3049692561065291
-0.5259870394904528,-0.1891957782618518,0.17357443747297063,21.695921446574204,20.764588198198638,75.78883204503622,-2.4407758308659155,0.0,0.12083048667653021,-1.184138769429999,1.6795437648037739,-0.9908099907475503
-0.5259870394904528,-0.1891957782618518,0.17357443747297063,21.93796806321725,20.50729402602234,76.47561898016254,-2.4407758308659155,0.0,0.12083048667653021,-1.184138769429999,1.6795437648037739,-0.978726942079897
-0.5259870394904528,-0.1891957782618518,0.17357443747297063,21.695921446574204,20.764588198198638,75.78883204503622,-2.4407758308659155,0.0,0.12083048667653021,-1.184138769429999,1.6795437648037739,-0.9908099907475503
-0.5259870394904528,-0.1891957782618518,0.17357443747297063,14.491013022950645,26.187726483928355,57.84721003162268,-2.4407758308659155,0.0,0.12083048667653021,-1.184138769429999,1.6795437648037739,-1.2928862074388763
-0.5259870394904528,-0.1891957782618518,0.17357443747297063,13.488775775275595,26.68989518492835,55.59646837619847,-2.4407758308659155,0.0,0.12083048667653021,-1.184138769429999,1.6795437648037739,-1.329135353441835
-0.5259870394904528,-0.1891957782618518,0.17357443747297063,-11.442237382653147,27.572873552604204,3.873943412608927,-2.4407758308659155,0.0,0.12083048667653021,-1.184138769429999,1.6795437648037739,-2.1266165655069362
-0.5259870394904528,-0.1891957782618518,0.17357443747297063,-12.838782766002053,26.990325438897653,0.8277464371355671,-2.4407758308659155,0.0,0.12083048667653021,-1.184138769429999,1.6795437648037739,-2.1749487601775486
-0.5259870394904528,-0.1891957782618518,0.17357443747297063,-12.49363008545087,27.14213073817714,1.586280781772997,-2.4407758308659155,0.0,0.12083048667653021,-1.184138769429999,1.6795437648037739,-2.162865711509896
-0.5259870394904528,-0.1891957782618518,0.17357443747297063,-1.2019026400829627,29.657760648280867,25.0644480628931,-2.4407758308659155,0.0,0.12083048667653021,-1.184138769429999,1.6795437648037739,-1.8003742514803043
-0.5259870394904528,-0.1891957782618518,0.17357443747297063,-0.018660500085469038,29.679886017596143,27.45464233471488,-2.4407758308659155,0.0,0.12083048667653021,-1.184138769429999,1.6795437648037739,-1.7641251054773452
-0.5259870394904528,-0.1891957782618518,0.17357443747297063,18.50693407849371,23.62532796022993,67.36265310915324,-2.4407758308659155,0.0,0.12083048667653021,-1.184138769429999,1.6795437648037739,-1.1358065747593866
-0.5259870394904528,-0.1891957782618518,0.17357443747297063,26.470447267931377,13.938707765164525,91.676357194517,-2.4407758308659155,0.0,0.12083048667653021,-1.184138769429999,1.6795437648037739,-0.700816822723877
-0.5259870394904528,-0.1891957782618518,0.17357443747297063,27.82182403818487,10.776707871902437,97.98229427533813,-2.4407758308659155,0.0,0.12083048667653021,-1.184138769429999,1.6795437648037739,-0.5799863360473464
-0.5259870394904528,-0.1891957782618518,0.17357443747297063,27.70343108653744,11.09919465344448,97.35834719041449,-2.4407758308659155,0.0,0.12083048667653021,-1.184138769429999,1.6795437648037739,-0.5920693847149991
-0.5259870394904528,-0.1891957782618518,0.17357443747297063,12.112742374473795,27.30360772351705,52.56576167576694,-2.4407758308659155,0.0,0.12083048667653021,-1.184138769429999,1.6795437648037739,-1.3774675481124474
-0.5259870394904528,-0.1891957782618518,0.17357443747297063,11.052902920902502,27.72068279863431,50.27167846979361,-2.4407758308659155,0.0,0.12083048667653021,-1.184138769429999,1.6795437648037739,-1.413716694115407
-0.5259870394904528,-0.1891957782618518,0.17357443747297063,-11.442237382653147,27.572873552604204,3.873943412608927,-2.4407758308659155,0.0,0.12083048667653021,-1.184138769429999,1.6795437648037739,-2.1266165655069362
-0.5259870394904528,-0.1891957782618518,0.17357443747297063,-16.130382967860175,25.256036076821726,-6.638640770108297,-2.4407758308659155,0.0,0.12083048667653021,-1.184138769429999,1.6795437648037739,-2.2957792468540794
-0.5259870394904528,-0.1891957782618518,0.17357443747297063,-15.81503137474003,25.446547775234077,-5.902134727558467,-2.4407758308659155,0.0,0.12083048667653021,-1.184138769429999,1.6795437648037739,-2.283696198186426
-0.5259870394904528,-0.1891957782618518,0.17357443747297063,-11.442237382653147,27.572873552604204,3.873943412608927,-2.4407758308659155,0.0,0.12083048667653021,-1.184138769429999,1.6795437648037739,-2.1266165655069362
-0.5259870394904528,-0.1891957782618518,0.17357443747297063,-11.086663763665317,27.70810956452521,4.640384861696723,-2.4407758308659155,0.0,0.12083048667653021,-1.184138769429999,1.6795437648037739,-2.1145335168392836
-0.5259870394904528,-0.1891957782618518,0.17357443747297063,4.300836774300259,29.3947510989661,36.20355753512502,-2.4407758308659155,0.0,0.12083048667653021,-1.184138769429999,1.6795437648037739,-1.6312115701331618
-0.5259870394904528,-0.1891957782618518,0.17357443747297063,20.690861759701214,21.765920254672096,73.01825144262564,-2.4407758308659155,0.0,0.12083048667653021,-1.184138769429999,1.6795437648037739,-1.039142185418162
-0.5259870394904528,-0.1891957782618518,0.17357443747297063,26.470447267931377,13.938707765164525,91.676357194517,-2.4407758308659155,0.0,0.12083048667653021,-1.184138769429999,1.6795437648037739,-0.700816822723877
-0.5259870394904528,-0.1891957782618518,0.17357443747297063,29.092774411919773,6.149474538158661,106.59515325217484,-2.4407758308659155,0.0,0.12083048667653021,-1.184138769429999,1.6795437648037739,-0.4108236547002039
-0.5259870394904528,-0.1891957782618518,0.17357443747297063,29.66318197854794,1.0444304760576735,115.65923720448734,-2.4407758308659155,0.0,0.12083048667653021,-1.184138769429999,1.6795437648037739,-0.22957792468540758
-0.5259870394904528,-0.1891957782618518,0.17357443747297063,29.501556810363965,-3.40556257016599,123.48575845854837,-2.4407758308659155,0.0,0.12083048667653021,-1.184138769429999,1.6795437648037739,-0.07249829200591792
-0.5259870394904528,-0.1891957782618518,0.17357443747297063,28.961972991260353,-6.789575260220894,129.55032296428797,-2.4407758308659155,0.0,0.12083048667653021,-1.184138769429999,1.6795437648037739,0.048332194670612276
-0.5259870394904528,-0.1891957782618518,0.17357443747297063,28.367605364626204,-9.115298229152147,133.8435517163319,-2.4407758308659155,0.0,0.12083048667653021,-1.184138769429999,1.6795437648037739,0.13291353534418301
-0.5259870394904528,-0.1891957782618518,0.17357443747297063,28.26802524725164,-9.443705882153257,134.46109157535412,-2.4407758308659155,0.0,0.12083048667653021,-1.184138769429999,1.6795437648037739,0.14499658401183685
-0.5259870394904528,-0.1891957782618518,0.17357443747297063,28.057812962826752,-10.097242887675693,135.69974117648886,-2.4407758308659155,0.0,0.12083048667653021,-1.184138769429999,1.6795437648037739,0.1691626813471425
-0.5259870394904528,-0.1891957782618518,0.17357443747297063,27.593038220723546,-11.39006950241175,138.19242558139314,-2.4407758308659155,0.0,0.12083048667653021,-1.184138769429999,1.6795437648037739,0.21749487601775477
-0.5259870394904528,-0.1891957782618518,0.17357443747297063,26.78440174473054,-13.288761843516866,141.9745309385592,-2.4407758308659155,0.0,0.12083048667653021,-1.184138769429999,1.6795437648037739,0.2899931680236727
-0.5259870394904528,-0.1891957782618518,0.17357443747297063,26.007722580948297,-14.82808153847862,145.17084208988908,-2.4407758308659155,0.0,0.12083048667653021,-1.184138769429999,1.6795437648037739,0.3504084113619388
-0.5259870394904528,-0.1891957782618518,0.17357443747297063,25.841123845464367,-15.130751513301112,145.81538579999463,-2.4407758308659155,0.0,0.12083048667653021,-1.184138769429999,1.6795437648037739,0.3624914600295916
-0.5259870394904528,-0.1891957782618518,0.17357443747297063,24.762471484869312,-16.906762615844276,149.7223572632167,-2.4407758308659155,0.0,0.12083048667653021,-1.184138769429999,1.6795437648037739,0.43498975203550955
-0.5259870394904528,-0.1891957782618518,0.17357443747297063,24.569506799163143,-17.19568511124976,150.38042228053683,-2.4407758308659155,0.0,0.12083048667653021,-1.184138769429999,1.6795437648037739,0.44707280070316235
-0.5259870394904528,-0.1891957782618518,0.17357443747297063,22.66345686355107,-19.69422240156341,156.39831078502792,-2.4407758308659155,0.0,0.12083048667653021,-1.184138769429999,1.6795437648037739,0.5558202387120397
-0.5259870394904528,-0.1891957782618518,0.17357443747297063,20.455232741759957,-21.98618926346014,162.59879045498525,-2.4407758308659155,0.0,0.12083048667653021,-1.184138769429999,1.6795437648037739,0.6645676767209181
-0.526389559817083,-0.18953537888907712,0.17386313293511652,19.826806548822855,-21.61358073805195,162.83216980964286,-2.4407758308659155,0.0,0.12083048667653021,-1.1962218180976516,1.6795437648037739,0.6645676767209181
-0.5259870394904528,-0.1891957782618518,0.17357443747297063,20.455232741759957,-21.98618926346014,162.59879045498525,-2.4407758308659155,0.0,0.12083048667653021,-1.184138769429999,1.6795437648037739,0.6645676767209181
-0.5232481114494041,-0.1868849839512838,0.17137846371880716,24.949707129047088,-24.52381575409959,160.82305998488087,-2.4407758308659155,0.0,0.12083048667653021,-1.0995574287564276,1.6795437648037739,0.6645676767209181
-0.5117033072056232,-0.17714479816935463,0.1553324276581928,51.98056551441975,-35.093004802885375,147.13806671972128,-2.4407758308659155,0.0,0.12083048667653021,-0.6524846280532648,1.6795437648037739,0.6645676767209181
-0.5108110595295026,-0.17639202160031142,0.15323306854886495,55.24886598145,-35.85820635056661,145.2409045737377,-2.4407758308659155,0.0,0.12083048667653021,-0.604152433382652,1.6795437648037739,0.6645676767209181
-0.5089282649719423,-0.1748035348323594,0.11250866141516547,114.89002068093951,-33.116712867319016,109.2695227698044,-2.4407758308659155,0.0,0.12083048667653021,0.2416609733530614,1.6795437648037739,0.6645676767209181
-0.5110268343477349,-0.1765740677201299,0.10650518035334379,123.12064837365998,-30.12972957089359,104.94709456554214,-2.4407758308659155,0.0,0.12083048667653021,0.3745745086972444,1.6795437648037739,0.6645676767209181
-0.5108110595295026,-0.17639202160031142,0.10703527157879643,122.39424782246215,-30.422574667904158,105.31332748867095,-2.4407758308659155,0.0,0.12083048667653021,0.3624914600295916,1.6795437648037739,0.6645676767209181
-0.5106001958759607,-0.1762141189597135,0.10756873520390053,121.6635041167259,-30.71137439411198,105.68494860510505,-2.4407758308659155,0.0,0.12083048667653021,0.3504084113619388,1.6795437648037739,0.6645676767209181
-0.5103942741728417,-0.17604038577181721,0.1081054933438798,120.92840276028649,-30.996057478431236,106.0619487900378,-2.4407758308659155,0.0,0.12083048667653021,0.338325362694285,1.6795437648037739,0.6645676767209181
-0.5096205972347422,-0.1753876456340758,0.11028389676299094,117.94423845380659,-32.09219059854259,107.62345717296479,-2.4407758308659155,0.0,0.12083048667653021,0.2899931680236727,1.6795437648037739,0.6645676767209181
-0.5084633781810743,-0.17441131651362451,0.1142045374503223,112.55376966438614,-33.83534342385899,110.55832048559236,-2.4407758308659155,0.0,0.12083048667653021,0.20541182735010194,1.6795437648037739,0.6645676767209181
-0.5083188943585213,-0.1742894175845103,0.11477459125947304,111.7664512969707,-34.065028058310055,110.99802132059318,-2.4407758308659155,0.0,0.12083048667653021,0.1933287786824491,1.6795437648037739,0.6645676767209181
-0.507354533848271,-0.17347580045144778,0.11940869400483879,105.319236349641,-35.71501433817036,114.6888498692046,-2.4407758308659155,0.0,0.12083048667653021,0.09666438934122455,1.6795437648037739,0.6645676767209181
-0.5070818098910453,-0.17324570715974102,0.12117465809981941,102.83705244508589,-36.24340150713622,116.14727700708553,-2.4407758308659155,0.0,0.12083048667653021,0.060415243338265104,1.6795437648037739,0.6645676767209181
-0.506927249939759,-0.17311530714531154,0.12235865112072833,101.16427855775413,-36.56689921960386,117.14010328740636,-2.4407758308659155,0.0,0.12083048667653021,0.036249146002959455,1.6795437648037739,0.6645676767209181
-0.5068581818136647,-0.17305703535779898,0.12295239370970437,100.3227606593529,-36.71984168147876,117.64235469635065,-2.4407758308659155,0.0,0.12083048667653021,0.024166097335305642,1.6795437648037739,0.6645676767209181
-0.5067946019656431,-0.17300339395179148,0.12354718482573845,99.47795048415804,-36.86683738741988,118.14834358195638,-2.4407758308659155,0.0,0.12083048667653021,0.012083048667652821,1.6795437648037739,0.6645676767209181
-0.5066839434313791,-0.1729100329333344,0.12473956514463554,97.77886572040306,-37.14277071532542,119.17104285089566,-2.4407758308659155,0.0,0.12083048667653021,-0.012083048667652821,1.6795437648037739,0.6645676767209181
-0.5065953389584349,-0.17283527861014597,0.12593509576089132,96.06789351475976,-37.3942809958197,120.20717560949659,-2.4407758308659155,0.0,0.12083048667653021,-0.036249146002959455,1.6795437648037739,0.6645676767209181
-0.506559323668456,-0.17280489302646895,0.12653382431743287,95.20824021278828,-37.51075485155122,120.72994045940023,-2.4407758308659155,0.0,0.12083048667653021,-0.048332194670612276,1.6795437648037739,0.6645676767209181
-0.5059580046431491,-0.17229756878804772,0.13857419616132644,96.92480848740873,-37.27160374473976,119.68749682145344,-2.4407758308659155,0.024166097335305642,0.12083048667653021,-0.048332194670612276,1.6795437648037739,0.6645676767209181
-0.5055739950603291,-0.17197358540992141,0.14458637372826033,97.77886572040305,-37.142770715325426,119.17104285089566,-2.4407758308659155,0.036249146002959455,0.12083048667653021,-0.048332194670612276,1.6795437648037739,0.6645676767209181
-0.5028229318520943,-0.16965255283282318,0.1745320991466878,102.00240675630965,-36.40806648978943,116.64170651294663,-2.4407758308659155,0.09666438934122455,0.12083048667653021,-0.048332194670612276,1.6795437648037739,0.6645676767209181
-0.5021070784787701,-0.16904859760746252,0.18049209073384603,102.83705244508589,-36.24340150713622,116.14727700708553,-2.4407758308659155,0.10874743800887739,0.12083048667653021,-0.048332194670612276,1.6795437648037739,0.6645676767209181
-0.478224846070179,-0.1488995006080745,0.29051996903752886,117.94423845380659,-32.09219059854259,107.62345717296479,-2.4407758308659155,0.338325362694285,0.12083048667653021,-0.048332194670612276,1.6795437648037739,0.6645676767209181
-0.44110725261614087,-0.11758391929666293,0.38065341062334757,130.15089333182542,-26.994222619028854,101.58135508011553,-2.4407758308659155,0.5437371900443869,0.12083048667653021,-0.048332194670612276,1.6795437648037739,0.6645676767209181
-0.43583177855755034,-0.11313307748649548,0.3905503241437502,131.5075785910974,-26.32551729966301,100.97258658854011,-2.4407758308659155,0.5679032873796935,0.12083048667653021,-0.048332194670612276,1.6795437648037739,0.6645676767209181
-0.43849236601726743,-0.11537777697203891,0.38562271759755146,130.83122352512447,-26.661480217300248,101.27431015967271,-2.4407758308659155,0.5558202387120397,0.12083048667653021,-0.048332194670612276,1.6795437648037739,0.6645676767209181
-0.4603367286068397,-0.133807552429243,0.3394860298445183,124.56049234193459,-29.532186935938658,104.23081649920506,-2.4407758308659155,0.44707280070316235,0.12083048667653021,-0.048332194670612276,1.6795437648037739,0.6645676767209181
-0.4878459773420151,-0.15701671109005336,0.2565885631580994,113.33682250877118,-33.60068206415026,110.12363759912796,-2.4407758308659155,0.26582707068836703,0.12083048667653021,-0.048332194670612276,1.6795437648037739,0.6645676767209181
-0.5013362366054422,-0.16839824937321257,0.1864403306134969,103.66812746939728,-36.07296372999458,115.65692284199682,-2.4407758308659155,0.12083048667653021,0.12083048667653021,-0.048332194670612276,1.6795437648037739,0.6645676767209181
-0.5021070784787701,-0.16904859760746252,0.18049209073384603,102.83705244508589,-36.24340150713622,116.14727700708553,-2.4407758308659155,0.10874743800887739,0.12083048667653021,-0.048332194670612276,1.6795437648037739,0.6645676767209181
-0.5046395560698811,-0.17118521263402575,0.15659032344206988,99.47795048415806,-36.86683738741989,118.14834358195638,-2.4407758308659155,0.060415243338265104,0.12083048667653021,-0.048332194670612276,1.6795437648037739,0.6645676767209181
-0.505134490813617,-0.17160278197969198,0.15059204176092655,98.62995001367389,-37.00783146002375,118.6579483134859,-2.4407758308659155,0.048332194670612276,0.12083048667653021,-0.048332194670612276,1.6795437648037739,0.6645676767209181
-0.5055739950603291,-0.17197358540992141,0.14458637372826033,97.77886572040305,-37.142770715325426,119.17104285089566,-2.4407758308659155,0.036249146002959455,0.12083048667653021,-0.048332194670612276,1.6795437648037739,0.6645676767209181
-0.5062864634973349,-0.17257468481305208,0.1325563868277625,96.06789351475976,-37.3942809958197,120.20717560949659,-2.4407758308659155,0.012083048667652821,0.12083048667653021,-0.048332194670612276,1.6795437648037739,0.6645676767209181
-0.5067765453193943,-0.1729881598182933,0.12050738791415816,94.34597208215949,-37.62097970790153,121.25564859175472,-2.4407758308659155,-0.012083048667652821,0.12083048667653021,-0.048332194670612276,1.6795437648037739,0.6645676767209181
-0.5069380967361607,-0.1731244584318869,0.11447795746734066,93.48121658082226,-37.724912049335416,121.78415333268293,-2.4407758308659155,-0.024166097335305642,0.12083048667653021,-0.048332194670612276,1.6795437648037739,0.6645676767209181
-0.5067765453193943,-0.1729881598182933,0.12050738791415816,94.34597208215949,-37.62097970790153,121.25564859175472,-2.4407758308659155,-0.012083048667652821,0.12083048667653021,-0.048332194670612276,1.6795437648037739,0.6645676767209181
-0.5013362366054422,-0.16839824937321257,0.1864403306134969,103.66812746939728,-36.07296372999458,115.65692284199682,-2.4407758308659155,0.12083048667653021,0.12083048667653021,-0.048332194670612276,1.6795437648037739,0.6645676767209181
-0.500510518773705,-0.16770160307980264,0.19237595035279675,104.49554835970555,-35.89681397598899,115.17074750194179,-2.4407758308659155,0.13291353534418301,0.12083048667653021,-0.048332194670612276,1.6795437648037739,0.6645676767209181
-0.48637342260149174,-0.15577433777268118,0.2623058001447722,114.11558105156637,-33.361114815643894,109.69402293953026,-2.4407758308659155,0.27791011935601984,0.12083048667653021,-0.048332194670612276,1.6795437648037739,0.6645676767209181
-0.478224846070179,-0.1488995006080745,0.29051996903752886,117.94423845380659,-32.09219059854259,107.62345717296479,-2.4407758308659155,0.338325362694285,0.12083048667653021,-0.048332194670612276,1.6795437648037739,0.6645676767209181
-0.4727157600755269,-0.1442515637575696,0.3071212683718261,120.18893226185668,-31.27655241365421,106.44431611686632,-2.4407758308659155,0.3745745086972444,0.12083048667653021,-0.048332194670612276,1.6795437648037739,0.6645676767209181
-0.4625239464601827,-0.13565287676625704,0.33417476221441555,123.84272315803635,-29.83291009894462,104.5862562770788,-2.4407758308659155,0.43498975203550955,0.12083048667653021,-0.048332194670612276,1.6795437648037739,0.6645676767209181
-0.45348304740635187,-0.12802519988577493,0.35520696932391393,126.68820728412561,-28.607296751733905,103.19689096478116,-2.4407758308659155,0.4833219467061218,0.12083048667653021,-0.048332194670612276,1.6795437648037739,0.6645676767209181
-0.43849236601726743,-0.11537777697203891,0.38562271759755146,130.83122352512447,-26.661480217300248,101.27431015967271,-2.4407758308659155,0.5558202387120397,0.12083048667653021,-0.048332194670612276,1.6795437648037739,0.6645676767209181
-0.41294983536312535,-0.0938279101524274,0.42838495707361046,136.78085547271195,-23.52960311133405,98.74809477593959,-2.4407758308659155,0.6645676767209181,0.12083048667653021,-0.048332194670612276,1.6795437648037739,0.6645676767209181
-0.3840109051776752,-0.0694125497544021,0.4672675399806749,142.44475704453728,-20.18245643452211,96.63718178912167,-2.4407758308659155,0.7733151147297955,0.12083048667653021,-0.048332194670612276,1.6795437648037739,0.6645676767209181
-0.37366785188726664,-0.06068626401809413,0.47928542960114257,144.27631520265848,-19.026247346586935,96.02257394897636,-2.4407758308659155,0.8095642607327539,0.12083048667653021,-0.048332194670612276,1.6795437648037739,0.6645676767209181
-0.3771524494489015,-0.06362616900988856,0.47533406956211727,143.66871140197114,-19.41369781095888,96.22259739773946,-2.4407758308659155,0.7974812120651011,0.12083048667653021,-0.048332194670612276,1.6795437648037739,0.6645676767209181
-0.3840109051776752,-0.0694125497544021,0.4672675399806749,142.44475704453728,-20.18245643452211,96.63718178912167,-2.4407758308659155,0.7733151147297955,0.12083048667653021,-0.048332194670612276,1.6795437648037739,0.6645676767209181
-0.40680104181327364,-0.08864026121134233,0.43737774045461497,138.06279792995585,-22.802859637074405,98.24375052476282,-2.4407758308659155,0.6887337740562237,0.12083048667653021,-0.048332194670612276,1.6795437648037739,0.6645676767209181
-0.4486739232526942,-0.12396781080269696,0.3655025720403919,128.0856405323898,-27.972463697959007,102.53456604684148,-2.4407758308659155,0.5074880440414284,0.12083048667653021,-0.048332194670612276,1.6795437648037739,0.6645676767209181
-0.4848481764477987,-0.15448750946564027,0.2679993407623652,114.89002068093949,-33.11671286731902,109.26952276980441,-2.4407758308659155,0.2899931680236727,0.12083048667653021,-0.048332194670612276,1.6795437648037739,0.6645676767209181
-0.4986949454427594,-0.1661698298967578,0.20420586501808435,106.1391173825432,-35.52762810153075,114.21132422153867,-2.4407758308659155,0.15707963267948966,0.12083048667653021,-0.048332194670612276,1.6795437648037739,0.6645676767209181
-0.5021070784787701,-0.16904859760746252,0.18049209073384603,102.83705244508589,-36.24340150713622,116.14727700708553,-2.4407758308659155,0.10874743800887739,0.12083048667653021,-0.048332194670612276,1.6795437648037739,0.6645676767209181
-0.5034836922120469,-0.17021002687286507,0.16856122600059506,101.1642785577541,-36.566899219603876,117.14010328740636,-2.4407758308659155,0.08458134067357173,0.12083048667653021,-0.048332194670612276,1.6795437648037739,0.6645676767209181
-0.505134490813617,-0.17160278197969198,0.15059204176092655,98.62995001367389,-37.00783146002375,118.6579483134859,-2.4407758308659155,0.048332194670612276,0.12083048667653021,-0.048332194670612276,1.6795437648037739,0.6645676767209181
-0.5055739950603291,-0.17197358540992141,0.14458637372826033,97.77886572040305,-37.142770715325426,119.17104285089566,-2.4407758308659155,0.036249146002959455,0.12083048667653021,-0.048332194670612276,1.6795437648037739,0.6645676767209181
-0.5132922244148961,-0.14734677096975454,0.14458637372826033,97.77886572040306,-37.142770715325426,116.40181208166489,-2.489108025536528,0.036249146002959455,0.12083048667653021,-0.048332194670612276,1.6795437648037739,0.6645676767209181
-0.511474399639769,-0.15353799879229588,0.14458637372826033,97.77886572040306,-37.14277071532542,117.09411977397254,-2.4770249768688752,0.036249146002959455,0.12083048667653021,-0.048332194670612276,1.6795437648037739,0.6645676767209181
-0.48392263208067665,-0.22582928224682294,0.14458637372826033,97.77886572040303,-37.14277071532542,125.40181208166489,-2.3320283928570382,0.036249146002959455,0.12083048667653021,-0.048332194670612276,1.6795437648037739,0.6645676767209181
-0.3723953540764793,-0.3827553772610633,0.14458637372826033,97.77886572040305,-37.142770715325426,146.1710428508956,-1.9695369328274472,0.036249146002959455,0.12083048667653021,-0.048332194670612276,1.6795437648037739,0.6645676767209181
-0.0570910062276069,-0.5309619530323473,0.14458637372826033,97.77886572040303,-37.142770715325426,-175.7520340721813,-1.3049692561065291,0.036249146002959455,0.12083048667653021,-0.048332194670612276,1.6795437648037739,0.6645676767209181
0.07802438248094623,-0.528291751117195,0.14458637372826033,97.77886572040303,-37.14277071532541,-161.21357253371977,-1.0512252340858153,0.036249146002959455,0.12083048667653021,-0.048332194670612276,1.6795437648037739,0.6645676767209181
0.1223758213186238,-0.5198116359957687,0.14458637372826033,97.77886572040306,-37.142770715325426,-156.3674186875659,-0.9666438934122441,0.036249146002959455,0.12083048667653021,-0.048332194670612276,1.6795437648037739,0.6645676767209181
0.1597068103297512,-0.5095819004775406,0.14458637372826033,97.77886572040303,-37.14277071532542,-152.21357253371977,-0.8941456014063257,0.036249146002959455,0.12083048667653021,-0.048332194670612276,1.6795437648037739,0.6645676767209181
0.21996567847000015,-0.4866159459524911,0.14458637372826033,97.77886572040308,-37.14277071532541,-145.29049561064284,-0.773315114729795,0.036249146002959455,0.12083048667653021,-0.048332194670612276,1.6795437648037739,0.6645676767209181
0.3040775959267426,-0.4389952097864142,0.14458637372826033,97.77886572040305,-37.14277071532542,-134.90588022602748,-0.5920693847149991,0.036249146002959455,0.12083048667653021,-0.048332194670612276,1.6795437648037739,0.6645676767209181
0.3499269207260505,-0.403399465432454,0.14458637372826033,97.77886572040306,-37.14277071532542,-128.6751109952582,-0.4833219467061218,0.036249146002959455,0.12083048667653021,-0.048332194670612276,1.6795437648037739,0.6645676767209181
0.35477555312652304,-0.3991419364884813,0.14458637372826033,97.77886572040306,-37.142770715325426,-127.98280330295053,-0.47123889803846897,0.036249146002959455,0.12083048667653021,-0.048332194670612276,1.6795437648037739,0.6645676767209181
0.3595723889033386,-0.3948261335048016,0.14458637372826033,97.77886572040306,-37.14277071532544,-127.29049561064285,-0.45915584937081616,0.036249146002959455,0.12083048667653021,-0.048332194670612276,1.6795437648037739,0.6645676767209181
0.37822787475034714,-0.3769929088482182,0.14458637372826033,97.77886572040306,-37.14277071532541,-124.52126484141208,-0.4108236547002039,0.036249146002959455,0.12083048667653021,-0.048332194670612276,1.6795437648037739,0.6645676767209181
0.4087243192339201,-0.34369231796299105,0.14458637372826033,97.77886572040306,-37.14277071532542,-119.6751109952582,-0.3262423140266321,0.036249146002959455,0.12083048667653021,-0.048332194670612276,1.6795437648037739,0.6645676767209181
0.412847232660955,-0.33872871304953833,0.14458637372826033,97.77886572040306,-37.14277071532541,-118.98280330295053,-0.3141592653589793,0.036249146002959455,0.12083048667653021,-0.048332194670612276,1.6795437648037739,0.6645676767209181
0.43998733800676226,-0.30264025005562006,0.14458637372826033,97.77886572040306,-37.142770715325426,-114.13664945679669,-0.22957792468540758,0.036249146002959455,0.12083048667653021,-0.048332194670612276,1.6795437648037739,0.6645676767209181
0.4540951058599536,-0.28102955964460885,0.14458637372826033,97.77886572040303,-37.142770715325426,-111.36741868756586,-0.1812457300147953,0.036249146002959455,0.12083048667653021,-0.048332194670612276,1.6795437648037739,0.6645676767209181
0.47909848872705185,-0.23589111187041398,0.14458637372826033,97.77886572040306,-37.14277071532542,-105.82895714910441,-0.08458134067357173,0.036249146002959455,0.12083048667653021,-0.048332194670612276,1.6795437648037739,0.6645676767209181
0.4899357071817326,-0.21246877744351209,0.14458637372826033,97.77886572040306,-37.142770715325426,-103.05972637987364,-0.036249146002959455,0.036249146002959455,0.12083048667653021,-0.048332194670612276,1.6795437648037739,0.6645676767209181
0.4873327341859186,-0.21837304034812086,0.14458637372826033,97.77886572040306,-37.14277071532542,-103.7520340721813,-0.048332194670612276,0.036249146002959455,0.12083048667653021,-0.048332194670612276,1.6795437648037739,0.6645676767209181
0.46398164862267094,-0.2643879881942325,0.14458637372826033,97.77886572040306,-37.142770715325426,-109.29049561064285,-0.14499658401183685,0.036249146002959455,0.12083048667653021,-0.048332194670612276,1.6795437648037739,0.6645676767209181
0.43998733800676226,-0.30264025005562006,0.14458637372826033,97.77886572040306,-37.142770715325426,-114.13664945679669,-0.22957792468540758,0.036249146002959455,0.12083048667653021,-0.048332194670612276,1.6795437648037739,0.6645676767209181
0.42485195933869047,-0.3235441101396855,0.14458637372826033,97.77886572040305,-37.14277071532542,-116.90588022602746,-0.27791011935601984,0.036249146002959455,0.12083048667653021,-0.048332194670612276,1.6795437648037739,0.6645676767209181
0.40030008387674737,-0.3534682749671803,0.14458637372826033,97.77886572040305,-37.14277071532542,-121.05972637987364,-0.3504084113619388,0.036249146002959455,0.12083048667653021,-0.048332194670612276,1.6795437648037739,0.6645676767209181
0.37822787475034714,-0.3769929088482182,0.14458637372826033,97.77886572040306,-37.14277071532541,-124.52126484141208,-0.4108236547002039,0.036249146002959455,0.12083048667653021,-0.048332194670612276,1.6795437648037739,0.6645676767209181
0.3595723889033386,-0.3948261335048016,0.14458637372826033,97.77886572040306,-37.14277071532544,-127.29049561064285,-0.45915584937081616,0.036249146002959455,0.12083048667653021,-0.048332194670612276,1.6795437648037739,0.6645676767209181
0.3643167277266828,-0.3904526865812648,0.14458637372826033,97.77886572040306,-37.14277071532541,-126.59818791833513,-0.44707280070316235,0.036249146002959455,0.12083048667653021,-0.048332194670612276,1.6795437648037739,0.6645676767209181
0.39599999187055646,-0.35827919978492256,0.14458637372826033,97.77886572040306,-37.14277071532542,-121.7520340721813,-0.3624914600295916,0.036249146002959455,0.12083048667653021,-0.048332194670612276,1.6795437648037739,0.6645676767209181
0.40030008387674737,-0.3534682749671803,0.14458637372826033,97.77886572040305,-37.14277071532542,-121.05972637987364,-0.3504084113619388,0.036249146002959455,0.12083048667653021,-0.048332194670612276,1.6795437648037739,0.6645676767209181
0.47909848872705185,-0.23589111187041398,0.14458637372826033,97.77886572040306,-37.14277071532542,-105.82895714910441,-0.08458134067357173,0.036249146002959455,0.12083048667653021,-0.048332194670612276,1.6795437648037739,0.6645676767209181
0.5018703915811084,-0.1824995578466703,0.14458637372826033,97.77886572040305,-37.14277071532542,-99.59818791833519,0.024166097335305642,0.036249146002959455,0.12083048667653021,-0.048332194670612276,1.6795437648037739,0.6645676767209181
0.5101014912056536,-0.15803938505883172,0.14458637372826033,97.77886572040306,-37.14277071532542,-96.82895714910444,0.07249829200591792,0.036249146002959455,0.12083048667653021,-0.048332194670612276,1.6795437648037739,0.6645676767209181
0.5081547031187281,-0.1641912794831763,0.14458637372826033,97.77886572040306,-37.14277071532542,-97.5212648414121,0.060415243338265104,0.036249146002959455,0.12083048667653021,-0.048332194670612276,1.6795437648037739,0.6645676767209181
0.49962865809094964,-0.1885502123420764,0.14458637372826033,97.77886572040306,-37.14277071532541,-100.29049561064285,0.012083048667652821,0.036249146002959455,0.12083048667653021,-0.048332194670612276,1.6795437648037739,0.6645676767209181
0.4873327341859186,-0.21837304034812086,0.14458637372826033,97.77886572040306,-37.14277071532542,-103.7520340721813,-0.048332194670612276,0.036249146002959455,0.12083048667653021,-0.048332194670612276,1.6795437648037739,0.6645676767209181
0.4671423135527543,-0.25876251167544606,0.14458637372826033,97.77886572040305,-37.142770715325426,-108.59818791833519,-0.13291353534418401,0.036249146002959455,0.12083048667653021,-0.048332194670612276,1.6795437648037739,0.6645676767209181
0.43254594599862745,-0.3131836253065567,0.14458637372826033,97.77886572040305,-37.14277071532542,-115.52126484141208,-0.2537440220207142,0.036249146002959455,0.12083048667653021,-0.048332194670612276,1.6795437648037739,0.6645676767209181
0.4287302496100543,-0.31838710970971446,0.14458637372826033,97.77886572040306,-37.142770715325426,-116.21357253371974,-0.26582707068836703,0.036249146002959455,0.12083048667653021,-0.048332194670612276,1.6795437648037739,0.6645676767209181
0.40454173275569494,-0.3486057443861549,0.14458637372826033,97.77886572040305,-37.14277071532541,-120.36741868756592,-0.338325362694285,0.036249146002959455,0.12083048667653021,-0.048332194670612276,1.6795437648037739,0.6645676767209181
0.391642084543196,-0.3630378164525913,0.14458637372826033,97.77886572040303,-37.14277071532542,-122.44434176448897,-0.3745745086972444,0.036249146002959455,0.12083048667653021,-0.048332194670612276,1.6795437648037739,0.6645676767209181
0.37822787475034714,-0.3769929088482182,0.14458637372826033,97.77886572040306,-37.14277071532541,-124.52126484141208,-0.4108236547002039,0.036249146002959455,0.12083048667653021,-0.048332194670612276,1.6795437648037739,0.6645676767209181
0.36900787693120485,-0.3860222342336384,0.14458637372826033,97.77886572040305,-37.14277071532541,-125.90588022602746,-0.43498975203550955,0.036249146002959455,0.12083048667653021,-0.048332194670612276,1.6795437648037739,0.6645676767209181
0.3595723889033386,-0.3948261335048016,0.14458637372826033,97.77886572040306,-37.14277071532544,-127.29049561064285,-0.45915584937081616,0.036249146002959455,0.12083048667653021,-0.048332194670612276,1.6795437648037739,0.6645676767209181
0.34502719959395434,-0.4075980987447792,0.14458637372826033,97.77886572040306,-37.14277071532541,-129.3674186875659,-0.49540499537377464,0.036249146002959455,0.12083048667653021,-0.048332194670612276,1.6795437648037739,0.6645676767209181
0.3350773598929215,-0.41581623518953026,0.14458637372826033,97.77886572040306,-37.142770715325426,-130.7520340721813,-0.5195710927090813,0.036249146002959455,0.12083048667653021,-0.048332194670612276,1.6795437648037739,0.6645676767209181
0.3249318444496194,-0.42379154666247604,0.14458637372826033,97.77886572040305,-37.142770715325426,-132.13664945679668,-0.5437371900443869,0.036249146002959455,0.12083048667653021,-0.048332194670612276,1.6795437648037739,0.6645676767209181
0.3300286939835551,-0.4198345384880978,0.14458637372826033,97.77886572040308,-37.14277071532542,-131.444341764489,-0.5316541413767341,0.036249146002959455,0.12083048667653021,-0.048332194670612276,1.6795437648037739,0.6645676767209181
0.40454173275569494,-0.3486057443861549,0.14458637372826033,97.77886572040305,-37.14277071532541,-120.36741868756592,-0.338325362694285,0.036249146002959455,0.12083048667653021,-0.048332194670612276,1.6795437648037739,0.6645676767209181
0.412847232660955,-0.33872871304953833,0.14458637372826033,97.77886572040306,-37.14277071532541,-118.98280330295053,-0.3141592653589793,0.036249146002959455,0.12083048667653021,-0.048332194670612276,1.6795437648037739,0.6645676767209181
0.4949266942624025,-0.20056805794167604,0.14458637372826033,97.77886572040306,-37.14277071532542,-101.6751109952582,-0.012083048667652821,0.036249146002959455,0.12083048667653021,-0.048332194670612276,1.6795437648037739,0.6645676767209181
0.5202090822205335,-0.12067513967373457,0.14458637372826033,97.77886572040306,-37.14277071532541,-92.67511099525822,0.14499658401183685,0.036249146002959455,0.12083048667653021,-0.048332194670612276,1.6795437648037739,0.6645676767209181
0.5242407549563994,-0.10174285922240227,0.14458637372826033,97.77886572040306,-37.142770715325426,-90.59818791833517,0.1812457300147953,0.036249146002959455,0.12083048667653021,-0.048332194670612276,1.6795437648037739,0.6645676767209181
0.5254318198350871,-0.09540115966168199,0.14458637372826033,97.77886572040306,-37.14277071532544,-89.90588022602745,0.1933287786824491,0.036249146002959455,0.12083048667653021,-0.048332194670612276,1.6795437648037739,0.6645676767209181
0.5242407549563994,-0.10174285922240227,0.14458637372826033,97.77886572040306,-37.142770715325426,-90.59818791833517,0.1812457300147953,0.036249146002959455,0.12083048667653021,-0.048332194670612276,1.6795437648037739,0.6645676767209181
0.5187130192977384,-0.1269518891983469,0.14458637372826033,97.77886572040306,-37.14277071532542,-93.36741868756594,0.13291353534418301,0.036249146002959455,0.12083048667653021,-0.048332194670612276,1.6795437648037739,0.6645676767209181
0.4924671504026869,-0.20653349446097719,0.14458637372826033,97.77886572040305,-37.142770715325426,-102.36741868756592,-0.024166097335305642,0.036249146002959455,0.12083048667653021,-0.048332194670612276,1.6795437648037739,0.6645676767209181
0.4899357071817326,-0.21246877744351209,0.14458637372826033,97.77886572040306,-37.142770715325426,-103.05972637987364,-0.036249146002959455,0.036249146002959455,0.12083048667653021,-0.048332194670612276,1.6795437648037739,0.6645676767209181
0.45745756852400543,-0.27552232497587226,0.14458637372826033,97.77886572040306,-37.14277071532542,-110.6751109952582,-0.1691626813471425,0.036249146002959455,0.12083048667653021,-0.048332194670612276,1.6795437648037739,0.6645676767209181
0.43254594599862745,-0.3131836253065567,0.14458637372826033,97.77886572040305,-37.14277071532542,-115.52126484141208,-0.2537440220207142,0.036249146002959455,0.12083048667653021,-0.048332194670612276,1.6795437648037739,0.6645676767209181
0.4209116414082786,-0.3286538736832321,0.14458637372826033,97.77886572040305,-37.14277071532541,-117.59818791833519,-0.2899931680236737,0.036249146002959455,0.12083048667653021,-0.048332194670612276,1.6795437648037739,0.6645676767209181
0.41690987109849453,-0.3337156543236202,0.14458637372826033,97.77886572040305,-37.14277071532542,-118.29049561064285,-0.3020762166913265,0.036249146002959455,0.12083048667653021,-0.048332194670612276,1.6795437648037739,0.6645676767209181
0.4173895445525425,-0.3338651266169769,0.13857419616132644,96.9248084874087,-37.271603744739764,-117.77404164008507,-0.3020762166913265,0.024166097335305642,0.12083048667653021,-0.048332194670612276,1.6795437648037739,0.6645676767209181
0.4188086655357746,-0.33430734259979666,0.10241363589779187,91.74477219532166,-37.91373600440979,-114.61259112247154,-0.3020762166913265,-0.048332194670612276,0.12083048667653021,-0.048332194670612276,1.6795437648037739,0.6645676767209181
0.41880171009941813,-0.3343051751981722,0.09638050614536553,90.87335663573735,-37.99855167501049,-114.07661333270006,-0.3020762166913265,-0.060415243338265104,0.12083048667653021,-0.048332194670612276,1.6795437648037739,0.6645676767209181
0.4156107820528204,-0.3333108418052438,0.04221173251633002,82.9611963339792,-38.468590985202546,-109.17517839441707,-0.3020762166913265,-0.1691626813471425,0.12083048667653021,-0.048332194670612276,1.6795437648037739,0.6645676767209181
0.4055082468960164,-0.33016276453338084,-0.0171474877973748,74.12308857004479,-38.361810497680196,-103.67687590336878,-0.3020762166913265,-0.2899931680236737,0.12083048667653021,-0.048332194670612276,1.6795437648037739,0.6645676767209181
0.3906321960883561,-0.32552719962657306,-0.06913442276695374,66.25448354229155,-37.703102358068975,-98.82415615993288,-0.3020762166913265,-0.39874060603255107,0.12083048667653021,-0.048332194670612276,1.6795437648037739,0.6645676767209181
0.36527702955227825,-0.3176262101959385,-0.12990042531555004,56.905787242846756,-36.20724684586833,-93.19536221848783,-0.3020762166913265,-0.5316541413767341,0.12083048667653021,-0.048332194670612276,1.6795437648037739,0.6645676767209181
0.2808174034505205,-0.2913075263018365,-0.2513537168174742,37.371032460951334,-30.359959467336402,-82.38798812319243,-0.3020762166913265,-0.8337303580680606,0.12083048667653021,-0.048332194670612276,1.6795437648037739,0.6645676767209181
0.1398568343118292,-0.24738243650539093,-0.35432358433958844,17.34491703008257,-20.10022723403285,-73.74553082473005,-0.3020762166913265,-1.1962218180976516,0.12083048667653021,-0.048332194670612276,1.6795437648037739,0.6645676767209181
0.04160135124486817,-0.21676478971891266,-0.38831370735927334,6.714201204287617,-12.916953313677089,-70.71076787851064,-0.3020762166913265,-1.413716694115407,0.12083048667653021,-0.048332194670612276,1.6795437648037739,0.6645676767209181
-0.07861524304586745,-0.17930378391062943,-0.3988363658740317,-4.942195407173746,-4.043187217076645,-68.98084631800057,-0.3020762166913265,-1.6674607161361206,0.12083048667653021,-0.048332194670612276,1.6795437648037739,0.6645676767209181
